;FLAVOR:Marlin
;TIME:1052
;Filament used: 0.991363m
;Layer height: 0.16
;Generated with Cura_SteamEngine 3.5.0
M140 S50
M105
M190 S50
M104 S220
M105
M109 S220
M82 ;absolute extrusion mode
G21 ;metric values
G90 ;absolute positioning
M82 ;set extruder to absolute mode
M107 ;start with the fan off
G28 X0 Y0 ;move X/Y to min endstops
G28 Z0 ;move Z to min endstops
G1 Z15.0 F9000 ;move the platform down 15mm
G92 E0 ;zero the extruded length
G1 F200 E3 ;extrude 3mm of feed stock
G92 E0 ;zero the extruded length again
G1 F9000
;Put printing message on LCD screen
M117 Printing...
G92 E0
G1 F1800 E-2.5
;LAYER_COUNT:25
;LAYER:0
M107
G0 F3600 X57.384 Y58.849 Z0.3
;TYPE:SKIRT
G1 F1800 E0
G1 X58.656 Y57.695 E0.08282
G1 X59.25 Y57.207 E0.11989
G1 X60.632 Y56.182 E0.20287
G1 X61.27 Y55.756 E0.23986
G1 X62.742 Y54.874 E0.32261
G1 X63.414 Y54.515 E0.35935
G1 X64.269 Y54.11 E0.40497
G1 X64.394 Y53.863 E0.41832
G1 X64.785 Y53.176 E0.45644
G1 X65.243 Y52.533 E0.49451
G1 X65.82 Y51.882 E0.53646
G1 X66.814 Y50.879 E0.60455
G1 X67.397 Y50.347 E0.64261
G1 X68.032 Y49.877 E0.68071
G1 X68.784 Y49.435 E0.72277
G1 X70.039 Y48.789 E0.79084
G1 X70.759 Y48.463 E0.82895
G1 X71.507 Y48.212 E0.867
G1 X72.374 Y48.022 E0.9098
G1 X73.765 Y47.799 E0.97774
G1 X74.55 Y47.714 E1.01581
G1 X75.34 Y47.708 E1.05391
G1 X76.235 Y47.799 E1.09729
G1 X77.626 Y48.022 E1.16523
G1 X78.398 Y48.187 E1.20329
G1 X79.15 Y48.428 E1.24137
G1 X79.961 Y48.789 E1.28418
G1 X81.216 Y49.435 E1.35225
G1 X81.899 Y49.831 E1.39032
G1 X82.538 Y50.295 E1.4284
G1 X83.186 Y50.879 E1.47047
G1 X84.18 Y51.882 E1.53856
G1 X84.707 Y52.471 E1.57668
G1 X85.172 Y53.109 E1.61475
G1 X85.606 Y53.863 E1.6567
G1 X85.731 Y54.11 E1.67005
G1 X86.586 Y54.515 E1.71567
G1 X87.258 Y54.874 E1.75241
G1 X88.73 Y55.756 E1.83516
G1 X89.367 Y56.182 E1.87212
G1 X90.748 Y57.206 E1.95502
G1 X91.343 Y57.694 E1.99213
G1 X92.614 Y58.847 E2.07488
G1 X93.15 Y59.383 E2.11144
G1 X94.304 Y60.655 E2.19426
G1 X94.791 Y61.248 E2.23126
G1 X95.815 Y62.628 E2.31413
G1 X96.242 Y63.268 E2.35123
G1 X97.125 Y64.742 E2.43409
G1 X97.484 Y65.413 E2.47079
G1 X98.218 Y66.964 E2.55353
G1 X98.514 Y67.678 E2.5908
G1 X99.092 Y69.297 E2.6737
G1 X99.311 Y70.02 E2.71013
G1 X99.729 Y71.684 E2.79287
G1 X99.88 Y72.44 E2.83004
G1 X100.132 Y74.139 E2.91287
G1 X100.207 Y74.901 E2.94979
G1 X100.291 Y76.616 E3.03259
G1 X100.291 Y77.38 E3.06944
G1 X100.207 Y79.095 E3.15224
G1 X100.132 Y79.856 E3.18911
G1 X99.88 Y81.557 E3.27204
G1 X99.729 Y82.314 E3.30926
G1 X99.311 Y83.978 E3.39199
G1 X99.092 Y84.699 E3.42833
G1 X98.515 Y86.316 E3.51112
G1 X98.219 Y87.032 E3.54848
G1 X97.484 Y88.585 E3.63134
G1 X97.125 Y89.257 E3.66808
G1 X96.243 Y90.729 E3.75083
G1 X95.817 Y91.366 E3.78778
G1 X94.793 Y92.747 E3.87069
G1 X94.305 Y93.342 E3.9078
G1 X93.152 Y94.613 E3.99055
G1 X92.616 Y95.149 E4.0271
G1 X91.344 Y96.303 E4.10993
G1 X90.75 Y96.791 E4.147
G1 X89.368 Y97.816 E4.22997
G1 X88.73 Y98.242 E4.26696
G1 X87.258 Y99.124 E4.34971
G1 X86.586 Y99.483 E4.38645
G1 X85.035 Y100.217 E4.4692
G1 X84.321 Y100.513 E4.50647
G1 X82.702 Y101.091 E4.58937
G1 X81.979 Y101.31 E4.6258
G1 X80.315 Y101.728 E4.70854
G1 X79.558 Y101.879 E4.74576
G1 X77.857 Y102.131 E4.82868
G1 X77.096 Y102.206 E4.86556
G1 X75.382 Y102.29 E4.94831
G1 X74.618 Y102.29 E4.98515
G1 X72.904 Y102.206 E5.06791
G1 X72.143 Y102.131 E5.10478
G1 X70.442 Y101.879 E5.1877
G1 X69.685 Y101.728 E5.22493
G1 X68.021 Y101.31 E5.30766
G1 X67.298 Y101.091 E5.34409
G1 X65.679 Y100.513 E5.42699
G1 X64.965 Y100.217 E5.46426
G1 X63.414 Y99.483 E5.54701
G1 X62.742 Y99.124 E5.58375
G1 X61.27 Y98.242 E5.6665
G1 X60.632 Y97.816 E5.70349
G1 X59.25 Y96.791 E5.78647
G1 X58.656 Y96.303 E5.82354
G1 X57.384 Y95.149 E5.90636
G1 X56.848 Y94.613 E5.94291
G1 X55.695 Y93.342 E6.02567
G1 X55.207 Y92.747 E6.06277
G1 X54.183 Y91.366 E6.14568
G1 X53.757 Y90.729 E6.18263
G1 X52.875 Y89.257 E6.26538
G1 X52.516 Y88.585 E6.30212
G1 X51.781 Y87.032 E6.38498
G1 X51.485 Y86.316 E6.42234
G1 X50.908 Y84.699 E6.50513
G1 X50.689 Y83.978 E6.54147
G1 X50.271 Y82.314 E6.6242
G1 X50.12 Y81.557 E6.66143
G1 X49.868 Y79.856 E6.74435
G1 X49.793 Y79.095 E6.78123
G1 X49.709 Y77.382 E6.86393
G1 X49.709 Y76.618 E6.90077
G1 X49.793 Y74.903 E6.98357
G1 X49.868 Y74.142 E7.02045
G1 X50.12 Y72.441 E7.10337
G1 X50.271 Y71.684 E7.14059
G1 X50.689 Y70.02 E7.22333
G1 X50.908 Y69.299 E7.25967
G1 X51.485 Y67.682 E7.34246
G1 X51.781 Y66.966 E7.37982
G1 X52.516 Y65.413 E7.46267
G1 X52.875 Y64.741 E7.49941
G1 X53.757 Y63.269 E7.58216
G1 X54.183 Y62.632 E7.61912
G1 X55.207 Y61.251 E7.70202
G1 X55.695 Y60.656 E7.73913
G1 X56.848 Y59.385 E7.82189
G1 X57.384 Y58.849 E7.85844
G0 F3600 X57.653 Y59.145
G1 F1800 X58.925 Y57.991 E7.94126
G1 X59.489 Y57.528 E7.97645
G1 X60.871 Y56.503 E8.05942
G1 X61.476 Y56.099 E8.0945
G1 X62.948 Y55.217 E8.17725
G1 X63.586 Y54.876 E8.21214
G1 X64.566 Y54.412 E8.26443
G1 X64.752 Y54.043 E8.28435
G1 X65.133 Y53.375 E8.32144
G1 X65.582 Y52.75 E8.35855
G1 X66.104 Y52.164 E8.39639
G1 X67.098 Y51.161 E8.46449
G1 X67.667 Y50.644 E8.50156
G1 X68.287 Y50.188 E8.53868
G1 X68.967 Y49.79 E8.57667
G1 X70.222 Y49.144 E8.64474
G1 X70.923 Y48.828 E8.68182
G1 X71.654 Y48.587 E8.71893
G1 X72.438 Y48.417 E8.75762
G1 X73.829 Y48.194 E8.82555
G1 X74.593 Y48.112 E8.86261
G1 X75.363 Y48.11 E8.89974
G1 X76.171 Y48.194 E8.93891
G1 X77.562 Y48.417 E9.00685
G1 X78.314 Y48.578 E9.04393
G1 X79.046 Y48.817 E9.08106
G1 X79.778 Y49.144 E9.11973
G1 X81.033 Y49.79 E9.18779
G1 X81.697 Y50.178 E9.22488
G1 X82.318 Y50.632 E9.26197
G1 X82.902 Y51.161 E9.29997
G1 X83.896 Y52.164 E9.36807
G1 X84.408 Y52.738 E9.40516
G1 X84.858 Y53.362 E9.44226
G1 X85.248 Y54.043 E9.4801
G1 X85.434 Y54.412 E9.50003
G1 X86.414 Y54.876 E9.55232
G1 X87.052 Y55.217 E9.5872
G1 X88.524 Y56.099 E9.66995
G1 X89.129 Y56.503 E9.70503
G1 X90.51 Y57.527 E9.78794
G1 X91.074 Y57.99 E9.82313
G1 X92.345 Y59.143 E9.90588
G1 X92.854 Y59.652 E9.94059
G1 X94.008 Y60.924 E10.02341
G1 X94.47 Y61.486 E10.0585
G1 X95.494 Y62.866 E10.14136
G1 X95.899 Y63.473 E10.17655
G1 X96.782 Y64.947 E10.25941
G1 X97.123 Y65.585 E10.2943
G1 X97.857 Y67.136 E10.37704
G1 X98.137 Y67.813 E10.41237
G1 X98.715 Y69.432 E10.49527
G1 X98.923 Y70.117 E10.52979
G1 X99.341 Y71.781 E10.61253
G1 X99.484 Y72.498 E10.64778
G1 X99.736 Y74.197 E10.73061
G1 X99.807 Y74.921 E10.76569
G1 X99.891 Y76.636 E10.84849
G1 X99.891 Y77.36 E10.8834
G1 X99.807 Y79.075 E10.96621
G1 X99.736 Y79.797 E11.00119
G1 X99.484 Y81.498 E11.08411
G1 X99.341 Y82.217 E11.11946
G1 X98.923 Y83.881 E11.2022
G1 X98.716 Y84.565 E11.23666
G1 X98.139 Y86.182 E11.31945
G1 X97.858 Y86.861 E11.35489
G1 X97.123 Y88.414 E11.43774
G1 X96.782 Y89.051 E11.47258
G1 X95.9 Y90.523 E11.55534
G1 X95.496 Y91.128 E11.59042
G1 X94.472 Y92.509 E11.67332
G1 X94.009 Y93.073 E11.70851
G1 X92.856 Y94.344 E11.79126
G1 X92.347 Y94.853 E11.82598
G1 X91.075 Y96.007 E11.9088
G1 X90.511 Y96.47 E11.94399
G1 X89.129 Y97.495 E12.02696
G1 X88.524 Y97.899 E12.06204
G1 X87.052 Y98.781 E12.14479
G1 X86.414 Y99.122 E12.17968
G1 X84.863 Y99.856 E12.26242
G1 X84.186 Y100.136 E12.29775
G1 X82.567 Y100.714 E12.38065
G1 X81.882 Y100.922 E12.41517
G1 X80.218 Y101.34 E12.49791
G1 X79.499 Y101.483 E12.53326
G1 X77.798 Y101.735 E12.61618
G1 X77.076 Y101.806 E12.65116
G1 X75.362 Y101.89 E12.73392
G1 X74.638 Y101.89 E12.76883
G1 X72.924 Y101.806 E12.85158
G1 X72.202 Y101.735 E12.88657
G1 X70.501 Y101.483 E12.96949
G1 X69.782 Y101.34 E13.00484
G1 X68.118 Y100.922 E13.08758
G1 X67.433 Y100.714 E13.1221
G1 X65.814 Y100.136 E13.205
G1 X65.137 Y99.856 E13.24033
G1 X63.586 Y99.122 E13.32307
G1 X62.948 Y98.781 E13.35796
G1 X61.476 Y97.899 E13.44071
G1 X60.871 Y97.495 E13.47579
G1 X59.489 Y96.47 E13.55876
G1 X58.925 Y96.007 E13.59395
G1 X57.653 Y94.853 E13.67677
G1 X57.144 Y94.344 E13.71148
G1 X55.991 Y93.073 E13.79424
G1 X55.528 Y92.509 E13.82943
G1 X54.504 Y91.128 E13.91233
G1 X54.1 Y90.523 E13.94741
G1 X53.218 Y89.051 E14.03016
G1 X52.877 Y88.414 E14.06501
G1 X52.142 Y86.861 E14.14786
G1 X51.861 Y86.182 E14.1833
G1 X51.284 Y84.565 E14.26609
G1 X51.077 Y83.881 E14.30055
G1 X50.659 Y82.217 E14.38328
G1 X50.516 Y81.498 E14.41864
G1 X50.264 Y79.797 E14.50156
G1 X50.193 Y79.075 E14.53654
G1 X50.109 Y77.362 E14.61925
G1 X50.109 Y76.638 E14.65416
G1 X50.193 Y74.923 E14.73696
G1 X50.264 Y74.201 E14.77195
G1 X50.516 Y72.5 E14.85487
G1 X50.659 Y71.781 E14.89022
G1 X51.077 Y70.117 E14.97296
G1 X51.284 Y69.433 E15.00742
G1 X51.861 Y67.816 E15.09021
G1 X52.142 Y67.137 E15.12564
G1 X52.877 Y65.584 E15.2085
G1 X53.218 Y64.947 E15.24334
G1 X54.1 Y63.475 E15.32609
G1 X54.504 Y62.87 E15.36117
G1 X55.528 Y61.489 E15.44408
G1 X55.991 Y60.925 E15.47927
G1 X57.144 Y59.654 E15.56202
G1 X57.653 Y59.145 E15.59673
G0 F3600 X57.922 Y59.442
G1 F1800 X59.194 Y58.288 E15.67955
G1 X59.727 Y57.85 E15.71282
G1 X61.109 Y56.825 E15.79579
G1 X61.681 Y56.442 E15.82899
G1 X63.153 Y55.56 E15.91174
G1 X63.757 Y55.238 E15.94475
G1 X64.861 Y54.716 E16.00364
G1 X65.109 Y54.223 E16.03025
G1 X65.481 Y53.574 E16.06632
G1 X65.92 Y52.968 E16.10241
G1 X66.388 Y52.446 E16.13622
G1 X67.382 Y51.443 E16.20431
G1 X67.936 Y50.94 E16.2404
G1 X68.541 Y50.5 E16.27647
G1 X69.15 Y50.146 E16.31044
G1 X70.405 Y49.5 E16.3785
G1 X71.088 Y49.194 E16.4146
G1 X71.799 Y48.962 E16.45066
G1 X72.501 Y48.812 E16.48528
G1 X73.892 Y48.589 E16.55321
G1 X74.636 Y48.51 E16.58929
G1 X75.384 Y48.512 E16.62536
G1 X76.108 Y48.589 E16.66047
G1 X77.499 Y48.812 E16.72841
G1 X78.23 Y48.97 E16.76447
G1 X78.941 Y49.205 E16.80058
G1 X79.595 Y49.5 E16.83518
G1 X80.85 Y50.146 E16.90325
G1 X81.496 Y50.524 E16.93934
G1 X82.097 Y50.968 E16.97537
G1 X82.618 Y51.443 E17.00937
G1 X83.612 Y52.446 E17.07747
G1 X84.109 Y53.004 E17.1135
G1 X84.544 Y53.613 E17.14959
G1 X84.891 Y54.223 E17.18343
G1 X85.139 Y54.716 E17.21004
G1 X86.243 Y55.238 E17.26893
G1 X86.847 Y55.56 E17.30194
G1 X88.319 Y56.442 E17.38469
G1 X88.89 Y56.824 E17.41782
G1 X90.271 Y57.848 E17.50073
G1 X90.805 Y58.286 E17.53403
G1 X92.076 Y59.439 E17.61678
G1 X92.557 Y59.921 E17.64962
G1 X93.711 Y61.193 E17.73244
G1 X94.148 Y61.725 E17.76564
G1 X95.172 Y63.105 E17.84851
G1 X95.556 Y63.679 E17.88181
G1 X96.439 Y65.153 E17.96467
G1 X96.761 Y65.756 E17.99763
G1 X97.495 Y67.307 E18.08038
G1 X97.76 Y67.947 E18.11378
G1 X98.338 Y69.566 E18.19668
G1 X98.535 Y70.215 E18.22939
G1 X98.953 Y71.879 E18.31212
G1 X99.088 Y72.557 E18.34546
G1 X99.34 Y74.256 E18.42829
G1 X99.408 Y74.941 E18.46148
G1 X99.492 Y76.656 E18.54428
G1 X99.492 Y77.34 E18.57727
G1 X99.408 Y79.055 E18.66007
G1 X99.34 Y79.739 E18.69322
G1 X99.088 Y81.44 E18.77614
G1 X98.953 Y82.119 E18.80952
G1 X98.535 Y83.783 E18.89226
G1 X98.339 Y84.431 E18.9249
G1 X97.762 Y86.048 E19.0077
G1 X97.496 Y86.69 E19.04121
G1 X96.761 Y88.243 E19.12406
G1 X96.439 Y88.846 E19.15702
G1 X95.557 Y90.318 E19.23978
G1 X95.175 Y90.889 E19.2729
G1 X94.151 Y92.27 E19.35581
G1 X93.713 Y92.804 E19.38912
G1 X92.56 Y94.075 E19.47187
G1 X92.078 Y94.556 E19.5047
G1 X90.806 Y95.71 E19.58753
G1 X90.273 Y96.148 E19.62079
G1 X88.891 Y97.173 E19.70377
G1 X88.319 Y97.556 E19.73696
G1 X86.847 Y98.438 E19.81971
G1 X86.243 Y98.76 E19.85272
G1 X84.692 Y99.494 E19.93547
G1 X84.052 Y99.759 E19.96887
G1 X82.433 Y100.337 E20.05177
G1 X81.784 Y100.534 E20.08448
G1 X80.12 Y100.952 E20.16721
G1 X79.441 Y101.087 E20.20059
G1 X77.74 Y101.339 E20.28352
G1 X77.057 Y101.407 E20.31662
G1 X75.343 Y101.491 E20.39937
G1 X74.657 Y101.491 E20.43245
G1 X72.943 Y101.407 E20.5152
G1 X72.26 Y101.339 E20.5483
G1 X70.559 Y101.087 E20.63122
G1 X69.88 Y100.952 E20.66461
G1 X68.216 Y100.534 E20.74734
G1 X67.567 Y100.337 E20.78005
G1 X65.948 Y99.759 E20.86295
G1 X65.308 Y99.494 E20.89635
G1 X63.757 Y98.76 E20.9791
G1 X63.153 Y98.438 E21.0121
G1 X61.681 Y97.556 E21.09486
G1 X61.109 Y97.173 E21.12805
G1 X59.727 Y96.148 E21.21102
G1 X59.194 Y95.71 E21.24429
G1 X57.922 Y94.556 E21.32711
G1 X57.44 Y94.075 E21.35995
G1 X56.287 Y92.804 E21.4427
G1 X55.849 Y92.27 E21.47601
G1 X54.825 Y90.889 E21.55891
G1 X54.443 Y90.318 E21.59204
G1 X53.561 Y88.846 E21.67479
G1 X53.239 Y88.243 E21.70776
G1 X52.504 Y86.69 E21.79061
G1 X52.238 Y86.048 E21.82412
G1 X51.661 Y84.431 E21.90691
G1 X51.465 Y83.783 E21.93956
G1 X51.047 Y82.119 E22.0223
G1 X50.912 Y81.44 E22.05568
G1 X50.66 Y79.739 E22.1386
G1 X50.592 Y79.056 E22.1717
G1 X50.508 Y77.343 E22.25441
G1 X50.508 Y76.658 E22.28744
G1 X50.592 Y74.943 E22.37024
G1 X50.66 Y74.259 E22.40339
G1 X50.912 Y72.558 E22.48631
G1 X51.047 Y71.879 E22.51969
G1 X51.465 Y70.215 E22.60243
G1 X51.661 Y69.567 E22.63508
G1 X52.238 Y67.95 E22.71787
G1 X52.504 Y67.308 E22.75138
G1 X53.239 Y65.755 E22.83423
G1 X53.561 Y65.152 E22.8672
G1 X54.443 Y63.68 E22.94995
G1 X54.825 Y63.109 E22.98308
G1 X55.849 Y61.728 E23.06598
G1 X56.287 Y61.194 E23.09929
G1 X57.44 Y59.923 E23.18204
G1 X57.922 Y59.442 E23.21488
G0 F3600 X58.19 Y59.738
G1 F1800 X59.462 Y58.584 E23.2977
G1 X59.965 Y58.171 E23.32908
G1 X61.347 Y57.146 E23.41206
G1 X61.887 Y56.786 E23.44335
G1 X63.359 Y55.904 E23.5261
G1 X63.928 Y55.599 E23.55723
G1 X65.156 Y55.018 E23.62275
G1 X65.466 Y54.403 E23.65596
G1 X65.828 Y53.773 E23.691
G1 X66.257 Y53.187 E23.72602
G1 X66.672 Y52.727 E23.75589
G1 X67.666 Y51.724 E23.82399
G1 X68.205 Y51.237 E23.85902
G1 X68.794 Y50.812 E23.89404
G1 X69.333 Y50.502 E23.92403
G1 X70.588 Y49.856 E23.99209
G1 X71.252 Y49.559 E24.02717
G1 X71.943 Y49.338 E24.06216
G1 X72.564 Y49.207 E24.09276
G1 X73.955 Y48.984 E24.1607
G1 X74.678 Y48.909 E24.19575
G1 X75.404 Y48.913 E24.23076
G1 X76.045 Y48.984 E24.26186
G1 X77.436 Y49.207 E24.32979
G1 X78.146 Y49.361 E24.36483
G1 X78.834 Y49.593 E24.39984
G1 X79.412 Y49.856 E24.43046
G1 X80.667 Y50.502 E24.49853
G1 X81.293 Y50.869 E24.53352
G1 X81.876 Y51.303 E24.56857
G1 X82.334 Y51.724 E24.59857
G1 X83.328 Y52.727 E24.66666
G1 X83.81 Y53.27 E24.70168
G1 X84.23 Y53.863 E24.73672
G1 X84.534 Y54.403 E24.7666
G1 X84.844 Y55.018 E24.79981
G1 X86.072 Y55.599 E24.86532
G1 X86.641 Y55.904 E24.89646
G1 X88.113 Y56.786 E24.97921
G1 X88.652 Y57.145 E25.01044
G1 X90.033 Y58.169 E25.09334
G1 X90.536 Y58.583 E25.12476
G1 X91.807 Y59.736 E25.20751
G1 X92.261 Y60.189 E25.23844
G1 X93.415 Y61.461 E25.32126
G1 X93.827 Y61.963 E25.35258
G1 X94.851 Y63.343 E25.43544
G1 X95.213 Y63.884 E25.46683
G1 X96.096 Y65.358 E25.54969
G1 X96.4 Y65.927 E25.5808
G1 X97.134 Y67.478 E25.66355
G1 X97.384 Y68.082 E25.69507
G1 X97.962 Y69.701 E25.77797
G1 X98.147 Y70.312 E25.80875
G1 X98.565 Y71.976 E25.89149
G1 X98.693 Y72.616 E25.92296
G1 X98.945 Y74.315 E26.00579
G1 X99.008 Y74.96 E26.03704
G1 X99.092 Y76.675 E26.11984
G1 X99.092 Y77.321 E26.15099
G1 X99.008 Y79.036 E26.23379
G1 X98.945 Y79.68 E26.265
G1 X98.693 Y81.381 E26.34792
G1 X98.565 Y82.022 E26.37944
G1 X98.147 Y83.686 E26.46218
G1 X97.962 Y84.296 E26.49292
G1 X97.385 Y85.913 E26.57571
G1 X97.135 Y86.518 E26.60728
G1 X96.4 Y88.071 E26.69013
G1 X96.095 Y88.64 E26.72126
G1 X95.213 Y90.112 E26.80401
G1 X94.854 Y90.651 E26.83524
G1 X93.83 Y92.032 E26.91815
G1 X93.416 Y92.535 E26.94956
G1 X92.263 Y93.806 E27.03232
G1 X91.81 Y94.26 E27.06324
G1 X90.538 Y95.414 E27.14606
G1 X90.035 Y95.827 E27.17745
G1 X88.653 Y96.852 E27.26042
G1 X88.113 Y97.212 E27.29172
G1 X86.641 Y98.094 E27.37447
G1 X86.072 Y98.399 E27.4056
G1 X84.521 Y99.133 E27.48835
G1 X83.917 Y99.383 E27.51987
G1 X82.298 Y99.961 E27.60277
G1 X81.687 Y100.146 E27.63355
G1 X80.023 Y100.564 E27.71629
G1 X79.382 Y100.692 E27.74781
G1 X77.681 Y100.944 E27.83073
G1 X77.037 Y101.007 E27.86194
G1 X75.323 Y101.091 E27.94469
G1 X74.677 Y101.091 E27.97584
G1 X72.963 Y101.007 E28.05859
G1 X72.319 Y100.944 E28.0898
G1 X70.618 Y100.692 E28.17272
G1 X69.977 Y100.564 E28.20424
G1 X68.313 Y100.146 E28.28698
G1 X67.702 Y99.961 E28.31776
G1 X66.083 Y99.383 E28.40066
G1 X65.479 Y99.133 E28.43218
G1 X63.928 Y98.399 E28.51493
G1 X63.359 Y98.094 E28.54606
G1 X61.887 Y97.212 E28.62881
G1 X61.347 Y96.852 E28.66011
G1 X59.965 Y95.827 E28.74308
G1 X59.462 Y95.414 E28.77447
G1 X58.19 Y94.26 E28.85729
G1 X57.737 Y93.806 E28.88821
G1 X56.584 Y92.535 E28.97097
G1 X56.17 Y92.032 E29.00238
G1 X55.146 Y90.651 E29.08529
G1 X54.787 Y90.112 E29.11652
G1 X53.905 Y88.64 E29.19927
G1 X53.6 Y88.071 E29.2304
