;FLAVOR:Marlin
;TIME:1117
;Filament used: 0.94869m
;Layer height: 0.16
;Generated with Cura_SteamEngine 3.5.0
M140 S50
M105
M190 S50
M104 S220
M105
M109 S220
M82 ;absolute extrusion mode
G21 ;metric values
G90 ;absolute positioning
M82 ;set extruder to absolute mode
M107 ;start with the fan off
G28 X0 Y0 ;move X/Y to min endstops
G28 Z0 ;move Z to min endstops
G1 Z15.0 F9000 ;move the platform down 15mm
G92 E0 ;zero the extruded length
G1 F200 E3 ;extrude 3mm of feed stock
G92 E0 ;zero the extruded length again
G1 F9000
;Put printing message on LCD screen
M117 Printing...
G92 E0
G1 F1800 E-2.5
;LAYER_COUNT:18
;LAYER:0
M107
G0 F3600 X57.496 Y50.867 Z0.3
;TYPE:SKIRT
G1 F1800 E0
G1 X58.475 Y49.762 E0.07119
G1 X58.989 Y49.235 E0.10669
G1 X60.065 Y48.23 E0.17769
G1 X60.64 Y47.743 E0.21403
G1 X61.806 Y46.848 E0.28491
G1 X62.419 Y46.422 E0.32091
G1 X63.666 Y45.642 E0.39184
G1 X64.339 Y45.266 E0.42901
G1 X65.663 Y44.61 E0.50027
G1 X66.381 Y44.298 E0.53802
G1 X67.775 Y43.774 E0.60983
G1 X68.523 Y43.535 E0.6477
G1 X69.973 Y43.151 E0.72003
G1 X70.762 Y42.985 E0.75891
G1 X72.267 Y42.749 E0.83237
G1 X73.072 Y42.665 E0.87141
G1 X74.62 Y42.585 E0.94615
G1 X75.426 Y42.585 E0.98502
G1 X76.974 Y42.665 E1.05977
G1 X77.779 Y42.749 E1.0988
G1 X79.285 Y42.985 E1.17231
G1 X80.11 Y43.16 E1.21298
G1 X81.629 Y43.57 E1.28885
G1 X82.342 Y43.8 E1.32498
G1 X83.666 Y44.298 E1.39319
G1 X84.383 Y44.61 E1.4309
G1 X85.705 Y45.265 E1.50204
G1 X86.377 Y45.641 E1.53918
G1 X87.626 Y46.422 E1.61021
G1 X88.243 Y46.85 E1.64642
G1 X89.408 Y47.745 E1.71727
G1 X89.978 Y48.227 E1.75327
G1 X91.055 Y49.232 E1.8243
G1 X91.574 Y49.766 E1.86021
G1 X92.551 Y50.87 E1.9313
G1 X93.016 Y51.449 E1.96711
G1 X93.888 Y52.647 E2.03857
G1 X94.297 Y53.268 E2.07442
G1 X95.056 Y54.552 E2.14635
G1 X95.107 Y54.649 E2.15164
G1 X95.237 Y54.701 E2.15839
G1 X95.604 Y54.883 E2.17814
G1 X96.512 Y55.363 E2.22767
G1 X97.191 Y55.767 E2.26577
G1 X97.695 Y56.133 E2.29581
G1 X98.441 Y56.721 E2.34161
G1 X99.036 Y57.241 E2.37972
G1 X99.616 Y57.867 E2.42087
G1 X100.171 Y58.536 E2.46279
G1 X100.644 Y59.168 E2.50086
G1 X101.226 Y60.195 E2.55778
G1 X101.569 Y60.924 E2.59663
G1 X101.868 Y61.655 E2.63472
G1 X102.093 Y62.412 E2.6728
G1 X102.222 Y63.067 E2.70499
G1 X102.337 Y63.82 E2.74172
G1 X102.416 Y64.606 E2.77982
G1 X102.416 Y65.396 E2.81791
G1 X102.339 Y66.16 E2.85494
G1 X102.225 Y66.917 E2.89186
G1 X102.068 Y67.69 E2.9299
G1 X101.772 Y68.608 E2.97641
G1 X101.627 Y68.977 E2.99553
G1 X101.301 Y69.696 E3.0336
G1 X100.934 Y70.333 E3.06905
G1 X100.484 Y71.035 E3.10926
G1 X100.024 Y71.678 E3.14738
G1 X99.337 Y72.435 E3.19668
G1 X98.683 Y73.067 E3.24054
G1 X98.088 Y73.586 E3.27861
G1 X97.493 Y74.012 E3.3139
G1 X96.661 Y74.549 E3.36165
G1 X96.26 Y74.78 E3.38397
G1 X96.041 Y75.313 E3.41176
G1 X95.404 Y76.671 E3.48409
G1 X95.251 Y76.96 E3.49986
G1 X95.377 Y77.186 E3.51234
G1 X95.689 Y77.911 E3.5504
G1 X95.926 Y78.664 E3.58847
G1 X96.085 Y79.438 E3.62657
G1 X96.166 Y80.223 E3.66462
G1 X96.176 Y80.625 E3.68402
G1 X96.176 Y87.882 E4.03397
G1 X96.136 Y88.671 E4.07207
G1 X96.017 Y89.451 E4.11011
G1 X95.819 Y90.216 E4.14822
G1 X95.545 Y90.956 E4.18627
G1 X95.197 Y91.665 E4.22436
G1 X94.779 Y92.336 E4.26248
G1 X94.296 Y92.96 E4.30053
G1 X93.941 Y93.335 E4.32543
G1 X93.934 Y93.492 E4.33301
G1 X93.821 Y94.274 E4.37111
G1 X93.63 Y95.04 E4.40918
G1 X93.362 Y95.782 E4.44723
G1 X93.02 Y96.494 E4.48532
G1 X92.608 Y97.168 E4.52341
G1 X92.13 Y97.797 E4.56151
G1 X91.591 Y98.374 E4.59958
G1 X90.996 Y98.893 E4.63766
G1 X90.352 Y99.35 E4.67574
G1 X89.665 Y99.739 E4.71381
G1 X88.942 Y100.057 E4.7519
G1 X88.191 Y100.3 E4.78996
G1 X87.418 Y100.466 E4.82809
G1 X86.634 Y100.553 E4.86613
G1 X86.188 Y100.567 E4.88764
G1 X84.542 Y100.571 E4.96702
G1 X84.497 Y100.668 E4.97218
G1 X84.128 Y101.38 E5.01085
G1 X83.73 Y102.062 E5.04893
G1 X83.299 Y102.658 E5.08439
G1 X82.8 Y103.283 E5.12296
G1 X82.276 Y103.874 E5.16105
G1 X81.744 Y104.369 E5.19609
G1 X81.138 Y104.882 E5.23438
G1 X80.51 Y105.361 E5.27247
G1 X79.868 Y105.757 E5.30884
G1 X79.178 Y106.138 E5.34685
G1 X78.469 Y106.484 E5.38489
G1 X77.746 Y106.751 E5.42206
G1 X76.995 Y106.987 E5.46002
G1 X76.231 Y107.186 E5.49809
G1 X75.442 Y107.306 E5.53658
G1 X74.661 Y107.385 E5.57443
G1 X73.872 Y107.425 E5.61253
G1 X73.091 Y107.385 E5.65024
G1 X72.31 Y107.306 E5.6881
G1 X71.529 Y107.187 E5.72619
G1 X70.757 Y106.987 E5.76465
G1 X70.006 Y106.751 E5.80261
G1 X69.265 Y106.477 E5.84071
G1 X68.574 Y106.138 E5.87782
G1 X67.884 Y105.757 E5.91583
G1 X67.213 Y105.341 E5.9539
G1 X66.614 Y104.882 E5.99029
G1 X66.008 Y104.369 E6.02858
G1 X65.432 Y103.829 E6.06666
G1 X64.98 Y103.315 E6.09966
G1 X58.561 Y103.424 E6.40925
G1 X57.772 Y103.397 E6.44732
G1 X56.989 Y103.291 E6.48542
G1 X56.221 Y103.106 E6.52352
G1 X55.476 Y102.845 E6.56158
G1 X54.761 Y102.509 E6.59968
G1 X54.084 Y102.103 E6.63775
G1 X53.451 Y101.631 E6.67582
G1 X52.869 Y101.097 E6.71391
G1 X52.345 Y100.507 E6.75197
G1 X51.882 Y99.867 E6.79006
G1 X51.487 Y99.183 E6.82815
G1 X51.163 Y98.463 E6.86622
G1 X50.913 Y97.714 E6.9043
G1 X50.74 Y96.943 E6.9424
G1 X50.629 Y95.765 E6.99946
G1 X50.577 Y92.869 E7.13914
G1 X50.603 Y92.08 E7.1772
G1 X50.709 Y91.297 E7.21531
G1 X50.893 Y90.529 E7.25339
G1 X51.153 Y89.784 E7.29144
G1 X51.154 Y89.782 E7.29155
G1 X51.154 Y85.51 E7.49756
G1 X51.194 Y84.721 E7.53565
G1 X51.313 Y83.941 E7.5737
G1 X51.511 Y83.176 E7.61181
G1 X51.785 Y82.436 E7.64986
G1 X52.133 Y81.727 E7.68795
G1 X52.551 Y81.056 E7.72607
G1 X53.034 Y80.432 E7.76412
G1 X53.391 Y80.055 E7.78916
G1 X53.402 Y79.836 E7.79973
G1 X53.521 Y79.056 E7.83778
G1 X53.719 Y78.291 E7.87589
G1 X53.993 Y77.551 E7.91394
G1 X54.341 Y76.842 E7.95203
G1 X54.558 Y76.494 E7.9718
G1 X54.003 Y75.309 E8.0349
G1 X53.933 Y75.138 E8.04381
G1 X53.773 Y75.059 E8.05242
G1 X53.339 Y74.799 E8.07682
G1 X52.507 Y74.262 E8.12457
G1 X51.866 Y73.8 E8.16267
G1 X51.317 Y73.317 E8.19793
G1 X50.663 Y72.685 E8.24179
G1 X50.123 Y72.108 E8.2799
G1 X49.516 Y71.285 E8.32921
G1 X49.066 Y70.583 E8.36942
G1 X48.674 Y69.898 E8.40748
G1 X48.354 Y69.176 E8.44557
G1 X48.185 Y68.69 E8.47038
G1 X47.954 Y67.947 E8.5079
G1 X47.758 Y67.182 E8.54598
G1 X47.64 Y66.401 E8.58407
G1 X47.602 Y65.631 E8.62125
G1 X47.602 Y64.869 E8.65799
G1 X47.642 Y64.08 E8.69609
G1 X47.8 Y63.121 E8.74296
G1 X47.886 Y62.747 E8.76146
G1 X48.228 Y61.642 E8.81724
G1 X48.373 Y61.273 E8.83636
G1 X48.699 Y60.554 E8.87443
G1 X49.066 Y59.917 E8.90988
G1 X49.516 Y59.215 E8.95009
G1 X49.976 Y58.572 E8.98822
G1 X50.663 Y57.815 E9.03752
G1 X51.317 Y57.183 E9.08137
G1 X51.912 Y56.664 E9.11945
G1 X52.507 Y56.238 E9.15473
G1 X53.339 Y55.701 E9.20249
G1 X54.023 Y55.307 E9.24055
G1 X54.481 Y55.092 E9.26495
G1 X54.77 Y54.968 E9.28012
G1 X54.988 Y54.554 E9.30268
G1 X55.747 Y53.27 E9.37461
G1 X56.154 Y52.651 E9.41033
G1 X57.026 Y51.452 E9.48182
G1 X57.496 Y50.867 E9.51801
G0 F3600 X57.795 Y51.133
G1 F1800 X58.774 Y50.028 E9.5892
G1 X59.262 Y49.527 E9.62293
G1 X60.338 Y48.522 E9.69393
G1 X60.883 Y48.06 E9.72838
G1 X62.049 Y47.165 E9.79926
G1 X62.631 Y46.761 E9.83343
G1 X63.878 Y45.981 E9.90436
G1 X64.517 Y45.624 E9.93965
G1 X65.841 Y44.968 E10.01091
G1 X66.522 Y44.672 E10.04672
G1 X67.916 Y44.148 E10.11853
G1 X68.626 Y43.922 E10.15446
G1 X70.076 Y43.538 E10.22679
G1 X70.824 Y43.38 E10.26366
G1 X72.329 Y43.144 E10.33712
G1 X73.093 Y43.065 E10.37416
G1 X74.641 Y42.985 E10.44891
G1 X75.405 Y42.985 E10.48575
G1 X76.953 Y43.065 E10.5605
G1 X77.717 Y43.144 E10.59754
G1 X79.223 Y43.38 E10.67105
G1 X80.005 Y43.547 E10.70961
G1 X81.524 Y43.957 E10.78548
G1 X82.201 Y44.175 E10.81978
G1 X83.525 Y44.673 E10.88799
G1 X84.205 Y44.968 E10.92374
G1 X85.527 Y45.623 E10.99488
G1 X86.165 Y45.98 E11.03014
G1 X87.414 Y46.761 E11.10117
G1 X87.999 Y47.167 E11.13551
G1 X89.164 Y48.062 E11.20636
G1 X89.705 Y48.52 E11.24054
G1 X90.782 Y49.525 E11.31157
G1 X91.275 Y50.031 E11.34564
G1 X92.252 Y51.135 E11.41673
G1 X92.693 Y51.684 E11.45069
G1 X93.565 Y52.882 E11.52214
G1 X93.952 Y53.471 E11.55613
G1 X94.711 Y54.755 E11.62806
G1 X94.831 Y54.983 E11.64048
G1 X95.417 Y55.237 E11.67128
G1 X96.325 Y55.717 E11.72081
G1 X96.986 Y56.111 E11.75792
G1 X97.448 Y56.447 E11.78546
G1 X98.194 Y57.035 E11.83127
G1 X98.772 Y57.542 E11.86835
G1 X99.308 Y58.122 E11.90643
G1 X99.863 Y58.791 E11.94835
G1 X100.323 Y59.408 E11.98546
G1 X100.864 Y60.366 E12.03851
G1 X101.207 Y61.095 E12.07736
G1 X101.498 Y61.807 E12.11446
G1 X101.713 Y62.545 E12.15152
G1 X101.826 Y63.128 E12.18016
G1 X101.941 Y63.881 E12.21689
G1 X102.018 Y64.646 E12.25397
G1 X102.014 Y65.415 E12.29105
G1 X101.943 Y66.1 E12.32426
G1 X101.829 Y66.857 E12.36118
G1 X101.676 Y67.611 E12.39828
G1 X101.399 Y68.461 E12.44139
G1 X101.254 Y68.83 E12.46051
G1 X100.936 Y69.531 E12.49763
G1 X100.597 Y70.118 E12.53032
G1 X100.147 Y70.82 E12.57053
G1 X99.699 Y71.445 E12.60761
G1 X99.059 Y72.147 E12.65342
G1 X98.405 Y72.779 E12.69728
G1 X97.825 Y73.284 E12.73436
G1 X97.276 Y73.675 E12.76686
G1 X96.444 Y74.212 E12.81462
G1 X95.944 Y74.499 E12.84242
G1 X95.679 Y75.144 E12.87604
G1 X95.042 Y76.502 E12.94838
G1 X94.8 Y76.96 E12.97336
G1 X95.112 Y77.561 E13.00601
G1 X95.393 Y78.276 E13.04306
G1 X95.599 Y79.018 E13.08019
G1 X95.727 Y79.776 E13.11726
G1 X95.776 Y80.625 E13.15827
G1 X95.776 Y87.882 E13.50822
G1 X95.736 Y88.65 E13.54531
G1 X95.617 Y89.41 E13.5824
G1 X95.419 Y90.153 E13.61948
G1 X95.145 Y90.872 E13.65659
G1 X94.798 Y91.558 E13.69366
G1 X94.382 Y92.205 E13.73075
G1 X93.901 Y92.805 E13.76784
G1 X93.548 Y93.162 E13.79205
G1 X93.534 Y93.475 E13.80716
G1 X93.421 Y94.236 E13.84426
G1 X93.229 Y94.98 E13.88131
G1 X92.961 Y95.701 E13.9184
G1 X92.62 Y96.391 E13.95552
G1 X92.209 Y97.041 E13.9926
G1 X91.733 Y97.645 E14.02969
G1 X91.196 Y98.196 E14.06679
G1 X90.606 Y98.689 E14.10387
G1 X89.967 Y99.117 E14.14095
G1 X89.287 Y99.477 E14.17806
G1 X88.574 Y99.765 E14.21514
G1 X87.835 Y99.977 E14.25221
G1 X87.077 Y100.111 E14.28933
G1 X86.187 Y100.167 E14.33233
G1 X84.286 Y100.172 E14.42401
G1 X84.142 Y100.484 E14.44058
G1 X83.773 Y101.196 E14.47925
G1 X83.384 Y101.86 E14.51636
G1 X82.986 Y102.408 E14.54902
G1 X82.487 Y103.033 E14.58759
G1 X81.976 Y103.608 E14.62468
G1 X81.485 Y104.064 E14.65699
G1 X80.879 Y104.577 E14.69528
G1 X80.267 Y105.043 E14.73238
G1 X79.675 Y105.407 E14.76589
G1 X78.985 Y105.788 E14.8039
G1 X78.293 Y106.124 E14.84099
G1 X77.626 Y106.37 E14.87528
G1 X76.875 Y106.606 E14.91324
G1 X76.131 Y106.798 E14.95029
G1 X75.402 Y106.908 E14.98584
G1 X74.621 Y106.987 E15.0237
G1 X73.852 Y107.025 E15.06083
G1 X73.131 Y106.987 E15.09564
G1 X72.35 Y106.908 E15.1335
G1 X71.59 Y106.791 E15.17058
G1 X70.877 Y106.606 E15.2061
G1 X70.126 Y106.37 E15.24406
G1 X69.405 Y106.101 E15.28117
G1 X68.767 Y105.788 E15.31544
G1 X68.077 Y105.407 E15.35345
G1 X67.424 Y105.001 E15.39053
G1 X66.873 Y104.577 E15.42405
G1 X66.267 Y104.064 E15.46234
G1 X65.706 Y103.537 E15.49946
G1 X65.265 Y103.033 E15.53175
G1 X65.168 Y102.911 E15.53927
G1 X58.554 Y103.024 E15.85826
G1 X57.785 Y102.997 E15.89537
G1 X57.024 Y102.891 E15.93242
G1 X56.277 Y102.705 E15.96954
G1 X55.554 Y102.444 E16.00661
G1 X54.861 Y102.109 E16.04373
G1 X54.208 Y101.704 E16.08078
G1 X53.599 Y101.233 E16.11791
G1 X53.044 Y100.701 E16.15498
G1 X52.546 Y100.115 E16.19207
G1 X52.111 Y99.48 E16.22918
G1 X51.745 Y98.804 E16.26625
G1 X51.452 Y98.093 E16.30334
G1 X51.233 Y97.355 E16.34046
G1 X51.092 Y96.599 E16.37754
G1 X51.029 Y95.758 E16.41821
G1 X50.977 Y92.862 E16.55789
G1 X51.003 Y92.093 E16.59499
G1 X51.109 Y91.331 E16.63209
G1 X51.294 Y90.585 E16.66916
G1 X51.554 Y89.861 E16.70625
G1 X51.554 Y85.51 E16.91607
G1 X51.594 Y84.742 E16.95315
G1 X51.713 Y83.982 E16.99025
G1 X51.911 Y83.239 E17.02733
G1 X52.185 Y82.52 E17.06443
G1 X52.532 Y81.834 E17.10151
G1 X52.948 Y81.187 E17.1386
G1 X53.429 Y80.587 E17.17568
G1 X53.783 Y80.229 E17.19996
G1 X53.802 Y79.857 E17.21792
G1 X53.921 Y79.097 E17.25502
G1 X54.119 Y78.354 E17.2921
G1 X54.393 Y77.635 E17.3292
G1 X54.74 Y76.949 E17.36627
G1 X55.015 Y76.522 E17.39077
G1 X55.002 Y76.498 E17.39208
G1 X54.366 Y75.14 E17.4644
G1 X54.245 Y74.846 E17.47973
G1 X53.95 Y74.7 E17.4956
G1 X53.556 Y74.462 E17.5178
G1 X52.724 Y73.925 E17.56555
G1 X52.1 Y73.475 E17.60265
G1 X51.595 Y73.029 E17.63514
G1 X50.941 Y72.397 E17.679
G1 X50.416 Y71.835 E17.71608
G1 X49.853 Y71.07 E17.76189
G1 X49.403 Y70.368 E17.8021
G1 X49.022 Y69.699 E17.83922
G1 X48.713 Y68.995 E17.8763
G1 X48.567 Y68.571 E17.89792
G1 X48.336 Y67.828 E17.93544
G1 X48.146 Y67.083 E17.97252
G1 X48.034 Y66.322 E18.00961
G1 X48.002 Y65.631 E18.04297
G1 X48.002 Y64.869 E18.07971
G1 X48.042 Y64.101 E18.1168
G1 X48.19 Y63.211 E18.16031
G1 X48.276 Y62.837 E18.17881
G1 X48.601 Y61.789 E18.23173
G1 X48.746 Y61.42 E18.25084
G1 X49.064 Y60.719 E18.28796
G1 X49.403 Y60.132 E18.32065
G1 X49.853 Y59.43 E18.36086
G1 X50.301 Y58.805 E18.39794
G1 X50.941 Y58.103 E18.44375
G1 X51.595 Y57.471 E18.48761
G1 X52.175 Y56.966 E18.5247
G1 X52.724 Y56.575 E18.5572
G1 X53.556 Y56.038 E18.60495
G1 X54.223 Y55.655 E18.64204
G1 X54.64 Y55.459 E18.66426
G1 X55.057 Y55.279 E18.68616
G1 X55.333 Y54.757 E18.71464
G1 X56.092 Y53.473 E18.78656
G1 X56.477 Y52.887 E18.82038
G1 X57.349 Y51.688 E18.89187
G1 X57.795 Y51.133 E18.9262
G0 F3600 X58.095 Y51.398
G1 F1800 X59.074 Y50.293 E18.99739
G1 X59.535 Y49.819 E19.02928
G1 X60.611 Y48.814 E19.10028
G1 X61.127 Y48.377 E19.13289
G1 X62.293 Y47.482 E19.20377
G1 X62.843 Y47.1 E19.23606
G1 X64.09 Y46.32 E19.30699
G1 X64.694 Y45.983 E19.34034
G1 X66.018 Y45.327 E19.4116
G1 X66.663 Y45.047 E19.4455
G1 X68.057 Y44.523 E19.51732
G1 X68.728 Y44.308 E19.5513
G1 X70.178 Y43.924 E19.62363
G1 X70.886 Y43.776 E19.65851
G1 X72.391 Y43.54 E19.73197
G1 X73.114 Y43.464 E19.76703
G1 X74.662 Y43.384 E19.84178
G1 X75.384 Y43.384 E19.87659
G1 X76.932 Y43.464 E19.95134
G1 X77.655 Y43.539 E19.9864
G1 X79.161 Y43.775 E20.0599
G1 X79.901 Y43.933 E20.09639
G1 X81.42 Y44.343 E20.17227
G1 X82.06 Y44.549 E20.20469
G1 X83.384 Y45.047 E20.2729
G1 X84.028 Y45.327 E20.30676
G1 X85.35 Y45.982 E20.37791
G1 X85.953 Y46.319 E20.41122
G1 X87.202 Y47.1 E20.48226
G1 X87.756 Y47.484 E20.51476
G1 X88.921 Y48.379 E20.58561
G1 X89.432 Y48.812 E20.61791
G1 X90.509 Y49.817 E20.68894
G1 X90.975 Y50.296 E20.72117
G1 X91.952 Y51.4 E20.79226
G1 X92.37 Y51.92 E20.82443
G1 X93.242 Y53.118 E20.89589
G1 X93.608 Y53.675 E20.92803
G1 X94.367 Y54.959 E20.99995
G1 X94.543 Y55.292 E21.01812
G1 X95.23 Y55.59 E21.05423
G1 X96.138 Y56.07 E21.10376
G1 X96.78 Y56.455 E21.13985
G1 X97.2 Y56.761 E21.16491
G1 X97.946 Y57.349 E21.21072
G1 X98.508 Y57.843 E21.2468
G1 X99 Y58.378 E21.28185
G1 X99.555 Y59.047 E21.32377
G1 X100.002 Y59.647 E21.35985
G1 X100.502 Y60.536 E21.40903
G1 X100.845 Y61.265 E21.44789
G1 X101.127 Y61.958 E21.48396
G1 X101.333 Y62.677 E21.52003
G1 X101.431 Y63.188 E21.54512
G1 X101.546 Y63.941 E21.58186
G1 X101.619 Y64.686 E21.61795
G1 X101.612 Y65.434 E21.65403
G1 X101.548 Y66.04 E21.68341
G1 X101.434 Y66.797 E21.72033
G1 X101.283 Y67.53 E21.75642
G1 X101.027 Y68.315 E21.79623
G1 X100.882 Y68.684 E21.81535
G1 X100.572 Y69.365 E21.85143
G1 X100.26 Y69.902 E21.88138
G1 X99.81 Y70.604 E21.92159
G1 X99.373 Y71.211 E21.95766
G1 X98.781 Y71.86 E22.00002
G1 X98.127 Y72.492 E22.04388
G1 X97.562 Y72.982 E22.07994
G1 X97.059 Y73.339 E22.10969
G1 X96.227 Y73.876 E22.15744
G1 X95.618 Y74.225 E22.19129
G1 X95.575 Y74.345 E22.19744
G1 X95.316 Y74.974 E22.23024
G1 X94.679 Y76.332 E22.30257
G1 X94.368 Y76.921 E22.33469
G1 X94.337 Y76.974 E22.33765
G1 X94.514 Y77.259 E22.35383
G1 X94.838 Y77.933 E22.38989
G1 X95.088 Y78.638 E22.42596
G1 X95.262 Y79.366 E22.46206
G1 X95.357 Y80.108 E22.49813
G1 X95.376 Y80.625 E22.52308
G1 X95.376 Y87.882 E22.87303
G1 X95.336 Y88.629 E22.90911
G1 X95.217 Y89.367 E22.94515
G1 X95.019 Y90.089 E22.98126
G1 X94.746 Y90.785 E23.01731
G1 X94.399 Y91.448 E23.0534
G1 X93.984 Y92.071 E23.08949
G1 X93.505 Y92.645 E23.12555
G1 X93.156 Y92.984 E23.14901
G1 X93.134 Y93.457 E23.17184
G1 X93.021 Y94.196 E23.20789
G1 X92.829 Y94.919 E23.24397
G1 X92.561 Y95.618 E23.28007
G1 X92.22 Y96.284 E23.31615
G1 X91.811 Y96.91 E23.35221
G1 X91.336 Y97.488 E23.38828
G1 X90.803 Y98.013 E23.42436
G1 X90.217 Y98.477 E23.46041
G1 X89.584 Y98.877 E23.49651
