;FLAVOR:Marlin
;TIME:505
;Filament used: 0.502639m
;Layer height: 0.16
;Generated with Cura_SteamEngine 3.5.0
M140 S50
M105
M190 S50
M104 S220
M105
M109 S220
M82 ;absolute extrusion mode
G21 ;metric values
G90 ;absolute positioning
M82 ;set extruder to absolute mode
M107 ;start with the fan off
G28 X0 Y0 ;move X/Y to min endstops
G28 Z0 ;move Z to min endstops
G1 Z15.0 F9000 ;move the platform down 15mm
G92 E0 ;zero the extruded length
G1 F200 E3 ;extrude 3mm of feed stock
G92 E0 ;zero the extruded length again
G1 F9000
;Put printing message on LCD screen
M117 Printing...
G92 E0
G1 F1800 E-2.5
;LAYER_COUNT:15
;LAYER:0
M107
G0 F3600 X58.799 Y58.263 Z0.3
;TYPE:SKIRT
G1 F1800 E0
G1 X59.926 Y57.241 E0.07337
G1 X60.519 Y56.755 E0.11034
G1 X61.743 Y55.847 E0.18383
G1 X62.38 Y55.421 E0.22078
G1 X63.683 Y54.64 E0.29404
G1 X64.362 Y54.277 E0.33117
G1 X64.941 Y54.004 E0.36204
G1 X64.976 Y53.925 E0.36621
G1 X65.347 Y53.28 E0.40209
G1 X65.735 Y52.674 E0.43679
G1 X66.194 Y52.032 E0.47484
G1 X66.505 Y51.663 E0.49812
G1 X66.98 Y51.135 E0.53236
G1 X67.537 Y50.576 E0.57042
G1 X68.148 Y50.075 E0.60852
G1 X68.56 Y49.792 E0.63262
G1 X69.44 Y49.226 E0.68308
G1 X70.125 Y48.833 E0.72116
G1 X70.846 Y48.511 E0.75924
G1 X71.233 Y48.373 E0.77905
G1 X71.89 Y48.158 E0.81239
G1 X72.652 Y47.951 E0.85047
G1 X73.499 Y47.814 E0.89184
G1 X74.183 Y47.742 E0.92501
G1 X74.972 Y47.699 E0.96311
G1 X75.85 Y47.745 E1.00551
G1 X76.534 Y47.82 E1.03869
G1 X77.314 Y47.946 E1.07679
G1 X78.083 Y48.152 E1.11519
G1 X78.739 Y48.364 E1.14843
G1 X79.477 Y48.645 E1.18651
G1 X80.207 Y49.012 E1.22591
G1 X80.813 Y49.358 E1.25956
G1 X81.479 Y49.784 E1.29769
G1 X82.109 Y50.285 E1.3365
G1 X82.639 Y50.753 E1.3706
G1 X83.204 Y51.305 E1.40869
G1 X83.888 Y52.158 E1.46141
G1 X84.499 Y53.04 E1.51316
G1 X84.915 Y53.711 E1.55123
G1 X85.048 Y53.999 E1.56652
G1 X85.638 Y54.277 E1.59798
G1 X86.317 Y54.64 E1.6351
G1 X87.62 Y55.421 E1.70836
G1 X88.256 Y55.846 E1.74525
G1 X89.479 Y56.753 E1.81867
G1 X90.072 Y57.24 E1.85568
G1 X91.198 Y58.261 E1.92897
G1 X91.737 Y58.799 E1.9657
G1 X92.759 Y59.926 E2.03906
G1 X93.244 Y60.517 E2.07593
G1 X94.151 Y61.739 E2.14932
G1 X94.579 Y62.379 E2.18645
G1 X95.361 Y63.684 E2.25981
G1 X95.723 Y64.362 E2.29687
G1 X96.372 Y65.736 E2.37015
G1 X96.662 Y66.437 E2.40673
G1 X97.176 Y67.872 E2.48024
G1 X97.4 Y68.608 E2.51734
G1 X97.769 Y70.082 E2.59061
G1 X97.918 Y70.832 E2.62748
G1 X98.141 Y72.336 E2.7008
G1 X98.216 Y73.095 E2.73758
G1 X98.291 Y74.614 E2.81092
G1 X98.291 Y75.383 E2.84801
G1 X98.216 Y76.903 E2.92139
G1 X98.141 Y77.662 E2.95817
G1 X97.918 Y79.168 E3.03159
G1 X97.768 Y79.92 E3.06857
G1 X97.399 Y81.393 E3.14179
G1 X97.177 Y82.127 E3.17877
G1 X96.664 Y83.56 E3.25217
G1 X96.373 Y84.263 E3.28886
G1 X95.723 Y85.639 E3.36225
G1 X95.36 Y86.317 E3.39933
G1 X94.579 Y87.62 E3.47259
G1 X94.154 Y88.256 E3.50948
G1 X93.247 Y89.479 E3.5829
G1 X92.76 Y90.072 E3.6199
G1 X91.739 Y91.198 E3.6932
G1 X91.201 Y91.737 E3.72993
G1 X90.074 Y92.759 E3.80329
G1 X89.481 Y93.245 E3.84026
G1 X88.257 Y94.153 E3.91376
G1 X87.62 Y94.579 E3.95071
G1 X86.317 Y95.36 E4.02397
G1 X85.638 Y95.723 E4.06109
G1 X85.058 Y95.997 E4.09203
G1 X85.022 Y96.077 E4.09626
G1 X84.522 Y96.915 E4.14332
G1 X83.914 Y97.804 E4.19525
G1 X83.436 Y98.433 E4.23335
G1 X82.897 Y99.01 E4.27143
G1 X82.309 Y99.523 E4.30905
G1 X81.483 Y100.175 E4.3598
G1 X80.839 Y100.633 E4.39791
G1 X79.853 Y101.165 E4.45194
G1 X79.218 Y101.451 E4.48552
G1 X78.483 Y101.738 E4.52357
G1 X77.604 Y101.976 E4.56748
G1 X76.931 Y102.116 E4.60063
G1 X76.15 Y102.237 E4.63874
G1 X75.376 Y102.279 E4.67612
G1 X74.692 Y102.282 E4.70911
G1 X73.903 Y102.245 E4.7472
G1 X73.037 Y102.112 E4.78945
G1 X72.364 Y101.969 E4.82263
G1 X71.601 Y101.766 E4.8607
G1 X70.862 Y101.487 E4.89879
G1 X70.431 Y101.282 E4.92181
G1 X69.505 Y100.808 E4.97197
G1 X68.821 Y100.413 E5.01006
G1 X67.942 Y99.752 E5.0631
G1 X67.407 Y99.287 E5.09728
G1 X66.838 Y98.74 E5.13534
G1 X66.237 Y98.017 E5.18068
G1 X65.814 Y97.441 E5.21514
G1 X65.38 Y96.782 E5.25319
G1 X65.177 Y96.415 E5.27341
G1 X64.967 Y96.009 E5.29546
G1 X64.357 Y95.721 E5.32799
G1 X63.683 Y95.36 E5.36486
G1 X62.38 Y94.579 E5.43811
G1 X61.743 Y94.153 E5.47507
G1 X60.519 Y93.245 E5.54856
G1 X59.926 Y92.759 E5.58553
G1 X58.799 Y91.737 E5.6589
G1 X58.261 Y91.198 E5.69562
G1 X57.24 Y90.072 E5.76892
G1 X56.753 Y89.479 E5.80592
G1 X55.846 Y88.256 E5.87935
G1 X55.421 Y87.62 E5.91623
G1 X54.64 Y86.317 E5.98949
G1 X54.277 Y85.639 E6.02658
G1 X53.627 Y84.263 E6.09996
G1 X53.336 Y83.56 E6.13665
G1 X52.823 Y82.127 E6.21005
G1 X52.601 Y81.393 E6.24703
G1 X52.232 Y79.92 E6.32026
G1 X52.082 Y79.168 E6.35723
G1 X51.859 Y77.662 E6.43065
G1 X51.785 Y76.904 E6.46738
G1 X51.71 Y75.386 E6.54067
G1 X51.709 Y74.616 E6.5778
G1 X51.784 Y73.097 E6.65114
G1 X51.859 Y72.339 E6.68787
G1 X52.082 Y70.833 E6.76129
G1 X52.231 Y70.082 E6.79821
G1 X52.6 Y68.608 E6.87148
G1 X52.823 Y67.873 E6.90852
G1 X53.336 Y66.44 E6.98192
G1 X53.627 Y65.737 E7.01861
G1 X54.277 Y64.361 E7.09199
G1 X54.64 Y63.683 E7.12908
G1 X55.421 Y62.38 E7.20234
G1 X55.846 Y61.744 E7.23922
G1 X56.753 Y60.521 E7.31265
G1 X57.24 Y59.928 E7.34965
G1 X58.261 Y58.802 E7.42295
G1 X58.799 Y58.263 E7.45967
G0 F3600 X59.068 Y58.559
G1 F1800 X60.195 Y57.537 E7.53304
G1 X60.757 Y57.076 E7.56809
G1 X61.981 Y56.168 E7.64158
G1 X62.586 Y55.764 E7.67666
G1 X63.889 Y54.983 E7.74992
G1 X64.532 Y54.639 E7.78509
G1 X65.245 Y54.302 E7.82312
G1 X65.341 Y54.09 E7.83434
G1 X65.684 Y53.496 E7.86742
G1 X66.072 Y52.89 E7.90211
G1 X66.52 Y52.265 E7.9392
G1 X66.803 Y51.931 E7.96031
G1 X67.278 Y51.403 E7.99456
G1 X67.821 Y50.859 E8.03162
G1 X68.418 Y50.374 E8.06871
G1 X68.776 Y50.128 E8.08966
G1 X69.656 Y49.562 E8.14012
G1 X70.324 Y49.18 E8.17722
G1 X71.357 Y48.753 E8.23113
G1 X72.014 Y48.538 E8.26446
G1 X72.757 Y48.337 E8.30158
G1 X73.541 Y48.212 E8.33986
G1 X74.225 Y48.14 E8.37303
G1 X74.993 Y48.099 E8.41012
G1 X75.807 Y48.143 E8.44943
G1 X76.491 Y48.218 E8.48261
G1 X77.25 Y48.342 E8.5197
G1 X77.96 Y48.533 E8.55515
G1 X78.616 Y48.745 E8.5884
G1 X79.334 Y49.019 E8.62546
G1 X80.009 Y49.36 E8.66192
G1 X80.615 Y49.706 E8.69557
G1 X81.262 Y50.121 E8.73264
G1 X81.844 Y50.585 E8.76853
G1 X82.374 Y51.053 E8.80263
G1 X82.923 Y51.591 E8.8397
G1 X83.559 Y52.386 E8.88879
G1 X84.17 Y53.268 E8.94053
G1 X84.575 Y53.922 E8.97763
G1 X84.749 Y54.299 E8.99765
G1 X85.468 Y54.639 E9.036
G1 X86.111 Y54.983 E9.07117
G1 X87.414 Y55.764 E9.14443
G1 X88.018 Y56.167 E9.17944
G1 X89.241 Y57.074 E9.25287
G1 X89.804 Y57.536 E9.28799
G1 X90.93 Y58.557 E9.36128
G1 X91.441 Y59.068 E9.39613
G1 X92.463 Y60.195 E9.4695
G1 X92.923 Y60.756 E9.50448
G1 X93.83 Y61.978 E9.57787
G1 X94.236 Y62.584 E9.61304
G1 X95.018 Y63.889 E9.68641
G1 X95.361 Y64.532 E9.72155
G1 X96.01 Y65.906 E9.79483
G1 X96.286 Y66.572 E9.82959
G1 X96.8 Y68.007 E9.9031
G1 X97.011 Y68.705 E9.93826
G1 X97.38 Y70.179 E10.01154
G1 X97.522 Y70.891 E10.04655
G1 X97.745 Y72.395 E10.11987
G1 X97.816 Y73.115 E10.15476
G1 X97.891 Y74.634 E10.2281
G1 X97.891 Y75.364 E10.2633
G1 X97.816 Y76.884 E10.33669
G1 X97.745 Y77.603 E10.37153
G1 X97.522 Y79.109 E10.44494
G1 X97.38 Y79.823 E10.48005
G1 X97.011 Y81.296 E10.55327
G1 X96.8 Y81.992 E10.58834
G1 X96.287 Y83.425 E10.66174
G1 X96.011 Y84.092 E10.69655
G1 X95.361 Y85.468 E10.76994
G1 X95.017 Y86.111 E10.8051
G1 X94.236 Y87.414 E10.87836
G1 X93.833 Y88.018 E10.91337
G1 X92.926 Y89.241 E10.9868
G1 X92.464 Y89.804 E11.02192
G1 X91.443 Y90.93 E11.09522
G1 X90.932 Y91.441 E11.13007
G1 X89.805 Y92.463 E11.20343
G1 X89.243 Y92.924 E11.23848
G1 X88.019 Y93.832 E11.31198
G1 X87.414 Y94.236 E11.34706
G1 X86.111 Y95.017 E11.42031
G1 X85.468 Y95.361 E11.45548
G1 X84.753 Y95.699 E11.49362
G1 X84.657 Y95.911 E11.50484
G1 X84.192 Y96.689 E11.54855
G1 X83.584 Y97.578 E11.60048
G1 X83.118 Y98.19 E11.63758
G1 X82.59 Y98.75 E11.67469
G1 X82.061 Y99.209 E11.70847
G1 X81.235 Y99.861 E11.75921
G1 X80.607 Y100.306 E11.79633
G1 X79.689 Y100.8 E11.8466
G1 X79.054 Y101.086 E11.88018
G1 X78.337 Y101.365 E11.91729
G1 X77.522 Y101.584 E11.95798
G1 X76.849 Y101.724 E11.99113
G1 X76.089 Y101.841 E12.02821
G1 X75.374 Y101.879 E12.06274
G1 X74.69 Y101.882 E12.09572
G1 X73.922 Y101.845 E12.1328
G1 X73.12 Y101.72 E12.17194
G1 X72.447 Y101.577 E12.20512
G1 X71.704 Y101.379 E12.2422
G1 X70.986 Y101.104 E12.27928
G1 X70.613 Y100.926 E12.29921
G1 X69.687 Y100.452 E12.34937
G1 X69.022 Y100.067 E12.38643
G1 X68.205 Y99.45 E12.4358
G1 X67.67 Y98.985 E12.46998
G1 X67.116 Y98.451 E12.50709
G1 X66.56 Y97.78 E12.54911
G1 X66.137 Y97.204 E12.58357
G1 X65.532 Y96.231 E12.63882
G1 X65.259 Y95.704 E12.66744
G1 X64.529 Y95.359 E12.70638
G1 X63.889 Y95.017 E12.74137
G1 X62.586 Y94.236 E12.81463
G1 X61.981 Y93.832 E12.84971
G1 X60.757 Y92.924 E12.9232
G1 X60.195 Y92.463 E12.95825
G1 X59.068 Y91.441 E13.03162
G1 X58.557 Y90.93 E13.06647
G1 X57.536 Y89.804 E13.13976
G1 X57.074 Y89.241 E13.17488
G1 X56.167 Y88.018 E13.24831
G1 X55.764 Y87.414 E13.28332
G1 X54.983 Y86.111 E13.35658
G1 X54.639 Y85.468 E13.39175
G1 X53.989 Y84.092 E13.46513
G1 X53.713 Y83.425 E13.49994
G1 X53.2 Y81.992 E13.57334
G1 X52.989 Y81.296 E13.60841
G1 X52.62 Y79.823 E13.68164
G1 X52.478 Y79.109 E13.71674
G1 X52.255 Y77.603 E13.79016
G1 X52.184 Y76.884 E13.825
G1 X52.109 Y75.366 E13.89829
G1 X52.109 Y74.636 E13.93349
G1 X52.184 Y73.117 E14.00683
G1 X52.255 Y72.398 E14.04167
G1 X52.478 Y70.892 E14.11509
G1 X52.62 Y70.179 E14.15015
G1 X52.989 Y68.705 E14.22342
G1 X53.2 Y68.008 E14.25854
G1 X53.713 Y66.575 E14.33193
G1 X53.989 Y65.908 E14.36674
G1 X54.639 Y64.532 E14.44013
G1 X54.983 Y63.889 E14.4753
G1 X55.764 Y62.586 E14.54855
G1 X56.167 Y61.982 E14.58357
G1 X57.074 Y60.759 E14.65699
G1 X57.536 Y60.196 E14.69211
G1 X58.557 Y59.07 E14.76541
G1 X59.068 Y58.559 E14.80026
G0 F3600 X59.337 Y58.856
G1 F1800 X60.464 Y57.834 E14.87362
G1 X60.995 Y57.397 E14.90679
G1 X62.219 Y56.489 E14.98028
G1 X62.791 Y56.107 E15.01345
G1 X64.094 Y55.326 E15.0867
G1 X64.703 Y55.001 E15.11999
G1 X65.549 Y54.602 E15.1651
G1 X65.706 Y54.255 E15.18346
G1 X66.021 Y53.712 E15.21374
G1 X66.409 Y53.106 E15.24844
G1 X66.845 Y52.498 E15.28451
G1 X67.1 Y52.198 E15.3035
G1 X67.575 Y51.67 E15.33775
G1 X68.104 Y51.142 E15.37379
G1 X68.992 Y50.465 E15.42764
G1 X69.872 Y49.899 E15.47809
G1 X70.522 Y49.528 E15.51419
G1 X71.482 Y49.133 E15.56425
G1 X72.139 Y48.918 E15.59758
G1 X72.861 Y48.724 E15.63363
G1 X73.583 Y48.609 E15.66889
G1 X74.267 Y48.537 E15.70205
G1 X75.014 Y48.499 E15.73812
G1 X75.763 Y48.541 E15.7743
G1 X76.447 Y48.616 E15.80748
G1 X77.185 Y48.737 E15.84354
G1 X77.837 Y48.913 E15.87611
G1 X78.493 Y49.125 E15.90936
G1 X79.191 Y49.393 E15.94541
G1 X79.811 Y49.707 E15.97893
G1 X80.417 Y50.053 E16.01258
G1 X81.046 Y50.458 E16.04865
G1 X81.579 Y50.885 E16.08159
G1 X82.109 Y51.353 E16.11568
G1 X82.643 Y51.877 E16.15176
G1 X83.23 Y52.614 E16.19719
G1 X83.841 Y53.496 E16.24894
G1 X84.234 Y54.133 E16.28503
G1 X84.45 Y54.601 E16.30988
G1 X85.297 Y55.001 E16.35506
G1 X85.906 Y55.326 E16.38834
G1 X87.209 Y56.107 E16.4616
G1 X87.78 Y56.488 E16.4947
G1 X89.003 Y57.395 E16.56813
G1 X89.535 Y57.832 E16.60133
G1 X90.661 Y58.853 E16.67462
G1 X91.144 Y59.337 E16.7076
G1 X92.166 Y60.464 E16.78096
G1 X92.602 Y60.994 E16.81406
G1 X93.509 Y62.216 E16.88744
G1 X93.892 Y62.79 E16.92072
G1 X94.674 Y64.095 E16.99408
G1 X94.999 Y64.703 E17.02733
G1 X95.648 Y66.077 E17.10061
G1 X95.909 Y66.707 E17.13349
G1 X96.423 Y68.142 E17.207
G1 X96.623 Y68.802 E17.24025
G1 X96.992 Y70.276 E17.31353
G1 X97.126 Y70.949 E17.34662
G1 X97.349 Y72.453 E17.41994
G1 X97.416 Y73.135 E17.45298
G1 X97.491 Y74.654 E17.52632
G1 X97.491 Y75.344 E17.5596
G1 X97.416 Y76.864 E17.63298
G1 X97.349 Y77.544 E17.66593
G1 X97.126 Y79.05 E17.73935
G1 X96.992 Y79.726 E17.77258
G1 X96.623 Y81.199 E17.84581
G1 X96.423 Y81.857 E17.87897
G1 X95.91 Y83.29 E17.95237
G1 X95.649 Y83.921 E17.9853
G1 X94.999 Y85.297 E18.05868
G1 X94.674 Y85.906 E18.09197
G1 X93.893 Y87.209 E18.16523
G1 X93.512 Y87.78 E18.19833
G1 X92.605 Y89.003 E18.27176
G1 X92.168 Y89.535 E18.30496
G1 X91.147 Y90.661 E18.37825
G1 X90.663 Y91.144 E18.41123
G1 X89.536 Y92.166 E18.48459
G1 X89.005 Y92.603 E18.51775
G1 X87.781 Y93.511 E18.59125
G1 X87.209 Y93.893 E18.62442
G1 X85.906 Y94.674 E18.69767
G1 X85.297 Y94.999 E18.73096
G1 X84.45 Y95.399 E18.77613
G1 X84.292 Y95.746 E18.79452
G1 X83.862 Y96.464 E18.83487
G1 X83.254 Y97.353 E18.88681
G1 X82.799 Y97.947 E18.92289
G1 X82.284 Y98.489 E18.95895
G1 X81.813 Y98.896 E18.98897
G1 X80.987 Y99.548 E19.03971
G1 X80.376 Y99.979 E19.07577
G1 X79.525 Y100.436 E19.12235
G1 X78.89 Y100.722 E19.15593
G1 X78.192 Y100.992 E19.19202
G1 X77.441 Y101.192 E19.2295
G1 X76.768 Y101.332 E19.26265
G1 X76.028 Y101.445 E19.29875
G1 X75.373 Y101.479 E19.33038
G1 X74.689 Y101.482 E19.36336
G1 X73.942 Y101.445 E19.39943
G1 X73.203 Y101.329 E19.4355
G1 X72.53 Y101.186 E19.46868
G1 X71.808 Y100.992 E19.50473
G1 X70.795 Y100.57 E19.55765
G1 X69.869 Y100.096 E19.60781
G1 X69.223 Y99.72 E19.64386
G1 X68.467 Y99.148 E19.68957
G1 X67.932 Y98.683 E19.72375
G1 X67.394 Y98.163 E19.75984
G1 X66.882 Y97.543 E19.79861
G1 X66.459 Y96.967 E19.83307
G1 X65.887 Y96.047 E19.88531
G1 X65.554 Y95.405 E19.92019
G1 X65.552 Y95.401 E19.9204
G1 X64.7 Y94.998 E19.96585
G1 X64.094 Y94.674 E19.99899
G1 X62.791 Y93.893 E20.07225
G1 X62.219 Y93.511 E20.10542
G1 X60.995 Y92.603 E20.17891
G1 X60.464 Y92.166 E20.21207
G1 X59.337 Y91.144 E20.28544
G1 X58.853 Y90.661 E20.31841
G1 X57.832 Y89.535 E20.39171
G1 X57.395 Y89.003 E20.42491
G1 X56.488 Y87.78 E20.49833
G1 X56.107 Y87.209 E20.53144
G1 X55.326 Y85.906 E20.60469
G1 X55.001 Y85.297 E20.63798
G1 X54.351 Y83.921 E20.71137
G1 X54.09 Y83.29 E20.74429
G1 X53.577 Y81.857 E20.81769
G1 X53.377 Y81.199 E20.85086
G1 X53.008 Y79.726 E20.92408
G1 X52.874 Y79.05 E20.95732
G1 X52.651 Y77.544 E21.03073
G1 X52.584 Y76.864 E21.06368
G1 X52.509 Y75.346 E21.13697
G1 X52.509 Y74.656 E21.17025
G1 X52.584 Y73.137 E21.24359
G1 X52.651 Y72.457 E21.27654
G1 X52.874 Y70.951 E21.34995
G1 X53.008 Y70.276 E21.38314
G1 X53.377 Y68.802 E21.45641
G1 X53.577 Y68.143 E21.48962
G1 X54.09 Y66.71 E21.56302
G1 X54.351 Y66.079 E21.59595
G1 X55.001 Y64.703 E21.66933
G1 X55.326 Y64.094 E21.70262
G1 X56.107 Y62.791 E21.77588
G1 X56.488 Y62.22 E21.80898
G1 X57.395 Y60.997 E21.8824
G1 X57.832 Y60.465 E21.9156
G1 X58.853 Y59.339 E21.9889
G1 X59.337 Y58.856 E22.02187
G0 F3600 X59.605 Y59.152
G1 F1800 X60.732 Y58.13 E22.09524
G1 X61.234 Y57.718 E22.12656
G1 X62.458 Y56.81 E22.20005
G1 X62.997 Y56.45 E22.2313
G1 X64.3 Y55.669 E22.30456
G1 X64.874 Y55.362 E22.33595
G1 X65.852 Y54.9 E22.38811
G1 X66.071 Y54.421 E22.41351
G1 X66.358 Y53.927 E22.44106
G1 X66.746 Y53.321 E22.47576
G1 X67.397 Y52.466 E22.52758
G1 X67.872 Y51.938 E22.56183
G1 X68.387 Y51.425 E22.59688
G1 X69.209 Y50.801 E22.64665
G1 X70.089 Y50.235 E22.69711
G1 X70.72 Y49.876 E22.73211
G1 X71.606 Y49.513 E22.77829
G1 X72.263 Y49.298 E22.81162
G1 X72.965 Y49.111 E22.84665
G1 X73.625 Y49.007 E22.87887
G1 X74.309 Y48.935 E22.91204
G1 X75.035 Y48.899 E22.94709
G1 X75.719 Y48.938 E22.98013
G1 X76.403 Y49.013 E23.01331
G1 X77.12 Y49.132 E23.04836
G1 X77.714 Y49.294 E23.07805
G1 X78.37 Y49.506 E23.1113
G1 X79.047 Y49.767 E23.14629
G1 X79.612 Y50.054 E23.17685
G1 X80.218 Y50.4 E23.2105
G1 X80.828 Y50.795 E23.24554
G1 X81.315 Y51.185 E23.27563
G1 X81.845 Y51.653 E23.30972
G1 X82.362 Y52.163 E23.34474
G1 X82.901 Y52.842 E23.38655
G1 X83.512 Y53.724 E23.43829
G1 X83.893 Y54.343 E23.47334
G1 X84.149 Y54.9 E23.5029
G1 X85.126 Y55.362 E23.55502
G1 X85.7 Y55.669 E23.58641
G1 X87.003 Y56.45 E23.65966
G1 X87.542 Y56.81 E23.69092
G1 X88.765 Y57.717 E23.76435
G1 X89.266 Y58.129 E23.79563
G1 X90.392 Y59.15 E23.86892
G1 X90.848 Y59.605 E23.89999
G1 X91.87 Y60.732 E23.97335
G1 X92.281 Y61.232 E24.00456
G1 X93.188 Y62.454 E24.07795
G1 X93.549 Y62.996 E24.10935
G1 X94.331 Y64.301 E24.18272
G1 X94.638 Y64.874 E24.21407
G1 X95.287 Y66.248 E24.28734
G1 X95.532 Y66.841 E24.31828
G1 X96.046 Y68.276 E24.39179
G1 X96.235 Y68.899 E24.42318
G1 X96.604 Y70.373 E24.49646
G1 X96.731 Y71.008 E24.52768
G1 X96.954 Y72.512 E24.601
G1 X97.017 Y73.155 E24.63216
G1 X97.092 Y74.674 E24.7055
G1 X97.092 Y75.324 E24.73684
