;FLAVOR:Marlin
;TIME:1209
;Filament used: 1.08315m
;Layer height: 0.16
;Generated with Cura_SteamEngine 3.5.0
M140 S50
M105
M190 S50
M104 S220
M105
M109 S220
M82 ;absolute extrusion mode
G21 ;metric values
G90 ;absolute positioning
M82 ;set extruder to absolute mode
M107 ;start with the fan off
G28 X0 Y0 ;move X/Y to min endstops
G28 Z0 ;move Z to min endstops
G1 Z15.0 F9000 ;move the platform down 15mm
G92 E0 ;zero the extruded length
G1 F200 E3 ;extrude 3mm of feed stock
G92 E0 ;zero the extruded length again
G1 F9000
;Put printing message on LCD screen
M117 Printing...
G92 E0
G1 F1800 E-2.5
;LAYER_COUNT:25
;LAYER:0
M107
G0 F3600 X57.384 Y58.85 Z0.3
;TYPE:SKIRT
G1 F1800 E0
G1 X58.656 Y57.696 E0.08282
G1 X59.25 Y57.208 E0.11989
G1 X60.632 Y56.183 E0.20287
G1 X61.27 Y55.757 E0.23986
G1 X62.742 Y54.875 E0.32261
G1 X63.414 Y54.516 E0.35935
G1 X64.387 Y54.055 E0.41127
G1 X64.614 Y53.61 E0.43536
G1 X65.007 Y52.925 E0.47344
G1 X65.467 Y52.284 E0.51149
G1 X66.05 Y51.633 E0.55363
G1 X66.933 Y50.75 E0.61385
G1 X67.519 Y50.22 E0.65195
G1 X68.155 Y49.753 E0.69
G1 X68.91 Y49.314 E0.73212
G1 X70.026 Y48.746 E0.7925
G1 X70.747 Y48.423 E0.8306
G1 X71.497 Y48.176 E0.86868
G1 X72.336 Y47.994 E0.91008
G1 X73.572 Y47.797 E0.97043
G1 X74.357 Y47.713 E1.0085
G1 X75.147 Y47.708 E1.0466
G1 X76.028 Y47.797 E1.0893
G1 X77.264 Y47.994 E1.14966
G1 X78.036 Y48.158 E1.18772
G1 X78.788 Y48.399 E1.2258
G1 X79.574 Y48.746 E1.26723
G1 X80.69 Y49.314 E1.32761
G1 X81.375 Y49.707 E1.3657
G1 X82.016 Y50.167 E1.40374
G1 X82.667 Y50.75 E1.44589
G1 X83.55 Y51.633 E1.5061
G1 X84.08 Y52.219 E1.54421
G1 X84.547 Y52.855 E1.58226
G1 X84.986 Y53.61 E1.62437
G1 X85.087 Y53.808 E1.63509
G1 X86.58 Y54.513 E1.71471
G1 X87.258 Y54.875 E1.75177
G1 X88.73 Y55.757 E1.83452
G1 X89.367 Y56.183 E1.87148
G1 X90.748 Y57.207 E1.95438
G1 X91.343 Y57.695 E1.99149
G1 X92.614 Y58.848 E2.07424
G1 X93.15 Y59.384 E2.1108
G1 X94.304 Y60.656 E2.19362
G1 X94.791 Y61.249 E2.23062
G1 X95.815 Y62.629 E2.31349
G1 X96.242 Y63.269 E2.35059
G1 X97.125 Y64.743 E2.43345
G1 X97.484 Y65.414 E2.47015
G1 X98.218 Y66.965 E2.55289
G1 X98.514 Y67.679 E2.59016
G1 X99.092 Y69.298 E2.67306
G1 X99.311 Y70.021 E2.70949
G1 X99.729 Y71.685 E2.79223
G1 X99.88 Y72.441 E2.8294
G1 X100.132 Y74.14 E2.91223
G1 X100.207 Y74.902 E2.94915
G1 X100.291 Y76.617 E3.03196
G1 X100.291 Y77.381 E3.0688
G1 X100.207 Y79.096 E3.1516
G1 X100.132 Y79.857 E3.18847
G1 X99.88 Y81.558 E3.2714
G1 X99.729 Y82.315 E3.30862
G1 X99.311 Y83.979 E3.39136
G1 X99.092 Y84.7 E3.42769
G1 X98.515 Y86.317 E3.51048
G1 X98.219 Y87.033 E3.54785
G1 X97.484 Y88.586 E3.6307
G1 X97.125 Y89.258 E3.66744
G1 X96.243 Y90.73 E3.75019
G1 X95.817 Y91.367 E3.78714
G1 X94.793 Y92.748 E3.87005
G1 X94.305 Y93.343 E3.90716
G1 X93.152 Y94.614 E3.98991
G1 X92.616 Y95.15 E4.02646
G1 X91.344 Y96.304 E4.10929
G1 X90.75 Y96.792 E4.14636
G1 X89.368 Y97.817 E4.22933
G1 X88.73 Y98.243 E4.26632
G1 X87.258 Y99.125 E4.34908
G1 X86.586 Y99.484 E4.38582
G1 X85.035 Y100.218 E4.46856
G1 X84.321 Y100.514 E4.50583
G1 X82.702 Y101.092 E4.58873
G1 X81.979 Y101.311 E4.62516
G1 X80.315 Y101.729 E4.7079
G1 X79.558 Y101.88 E4.74512
G1 X77.857 Y102.132 E4.82804
G1 X77.096 Y102.207 E4.86492
G1 X75.382 Y102.291 E4.94767
G1 X74.618 Y102.291 E4.98451
G1 X72.904 Y102.207 E5.06727
G1 X72.143 Y102.132 E5.10414
G1 X70.442 Y101.88 E5.18706
G1 X69.685 Y101.729 E5.22429
G1 X68.021 Y101.311 E5.30702
G1 X67.298 Y101.092 E5.34345
G1 X65.679 Y100.514 E5.42635
G1 X64.965 Y100.218 E5.46362
G1 X63.414 Y99.484 E5.54637
G1 X62.742 Y99.125 E5.58311
G1 X61.27 Y98.243 E5.66586
G1 X60.632 Y97.817 E5.70285
G1 X59.25 Y96.792 E5.78583
G1 X58.656 Y96.304 E5.8229
G1 X57.384 Y95.15 E5.90572
G1 X56.848 Y94.614 E5.94227
G1 X55.695 Y93.343 E6.02503
G1 X55.207 Y92.748 E6.06213
G1 X54.183 Y91.367 E6.14504
G1 X53.757 Y90.73 E6.18199
G1 X52.875 Y89.258 E6.26475
G1 X52.516 Y88.586 E6.30149
G1 X51.781 Y87.033 E6.38434
G1 X51.485 Y86.317 E6.4217
G1 X50.908 Y84.7 E6.50449
G1 X50.689 Y83.979 E6.54083
G1 X50.271 Y82.315 E6.62357
G1 X50.12 Y81.558 E6.66079
G1 X49.868 Y79.857 E6.74371
G1 X49.793 Y79.096 E6.78059
G1 X49.709 Y77.383 E6.86329
G1 X49.709 Y76.619 E6.90013
G1 X49.793 Y74.904 E6.98293
G1 X49.868 Y74.143 E7.01981
G1 X50.12 Y72.442 E7.10273
G1 X50.271 Y71.685 E7.13995
G1 X50.689 Y70.021 E7.22269
G1 X50.908 Y69.3 E7.25903
G1 X51.485 Y67.683 E7.34182
G1 X51.781 Y66.967 E7.37918
G1 X52.516 Y65.414 E7.46203
G1 X52.875 Y64.742 E7.49877
G1 X53.757 Y63.27 E7.58153
G1 X54.183 Y62.633 E7.61848
G1 X55.207 Y61.252 E7.70139
G1 X55.695 Y60.657 E7.73849
G1 X56.848 Y59.386 E7.82125
G1 X57.384 Y58.85 E7.8578
G0 F3600 X57.653 Y59.146
G1 F1800 X58.925 Y57.992 E7.94062
G1 X59.489 Y57.529 E7.97581
G1 X60.871 Y56.504 E8.05878
G1 X61.476 Y56.1 E8.09386
G1 X62.948 Y55.218 E8.17661
G1 X63.586 Y54.877 E8.2115
G1 X64.681 Y54.359 E8.26991
G1 X64.97 Y53.791 E8.30065
G1 X65.354 Y53.125 E8.33772
G1 X65.805 Y52.502 E8.37481
G1 X66.332 Y51.915 E8.41285
G1 X67.215 Y51.032 E8.47307
G1 X67.787 Y50.518 E8.51015
G1 X68.409 Y50.065 E8.54726
G1 X69.091 Y49.67 E8.58526
G1 X70.207 Y49.102 E8.64565
G1 X70.91 Y48.789 E8.68276
G1 X71.641 Y48.551 E8.71983
G1 X72.399 Y48.389 E8.75721
G1 X73.635 Y48.192 E8.81756
G1 X74.4 Y48.111 E8.85466
G1 X75.169 Y48.109 E8.89174
G1 X75.965 Y48.192 E8.93034
G1 X77.201 Y48.389 E8.99069
G1 X77.953 Y48.55 E9.02778
G1 X78.685 Y48.787 E9.06488
G1 X79.393 Y49.102 E9.10225
G1 X80.509 Y49.67 E9.16263
G1 X81.175 Y50.054 E9.19971
G1 X81.798 Y50.505 E9.23679
G1 X82.385 Y51.032 E9.27484
G1 X83.268 Y51.915 E9.33505
G1 X83.782 Y52.487 E9.37214
G1 X84.235 Y53.109 E9.40924
G1 X84.63 Y53.791 E9.44725
G1 X84.798 Y54.121 E9.46511
G1 X84.916 Y54.17 E9.47127
G1 X86.409 Y54.875 E9.55089
G1 X87.052 Y55.218 E9.58603
G1 X88.524 Y56.1 E9.66878
G1 X89.129 Y56.504 E9.70386
G1 X90.51 Y57.528 E9.78677
G1 X91.074 Y57.991 E9.82196
G1 X92.345 Y59.144 E9.90471
G1 X92.854 Y59.653 E9.93942
G1 X94.008 Y60.925 E10.02224
G1 X94.47 Y61.487 E10.05733
G1 X95.494 Y62.867 E10.14019
G1 X95.899 Y63.474 E10.17538
G1 X96.782 Y64.948 E10.25824
G1 X97.123 Y65.586 E10.29312
G1 X97.857 Y67.137 E10.37587
G1 X98.137 Y67.814 E10.4112
G1 X98.715 Y69.433 E10.4941
G1 X98.923 Y70.118 E10.52862
G1 X99.341 Y71.782 E10.61136
G1 X99.484 Y72.499 E10.64661
G1 X99.736 Y74.198 E10.72944
G1 X99.807 Y74.922 E10.76452
G1 X99.891 Y76.637 E10.84732
G1 X99.891 Y77.361 E10.88223
G1 X99.807 Y79.076 E10.96503
G1 X99.736 Y79.798 E11.00002
G1 X99.484 Y81.499 E11.08294
G1 X99.341 Y82.218 E11.11829
G1 X98.923 Y83.882 E11.20103
G1 X98.716 Y84.566 E11.23549
G1 X98.139 Y86.183 E11.31828
G1 X97.858 Y86.862 E11.35372
G1 X97.123 Y88.415 E11.43657
G1 X96.782 Y89.052 E11.47141
G1 X95.9 Y90.524 E11.55416
G1 X95.496 Y91.129 E11.58925
G1 X94.472 Y92.51 E11.67215
G1 X94.009 Y93.074 E11.70734
G1 X92.856 Y94.345 E11.79009
G1 X92.347 Y94.854 E11.82481
G1 X91.075 Y96.008 E11.90763
G1 X90.511 Y96.471 E11.94281
G1 X89.129 Y97.496 E12.02579
G1 X88.524 Y97.9 E12.06087
G1 X87.052 Y98.782 E12.14362
G1 X86.414 Y99.123 E12.1785
G1 X84.863 Y99.857 E12.26125
G1 X84.186 Y100.137 E12.29658
G1 X82.567 Y100.715 E12.37948
G1 X81.882 Y100.923 E12.414
G1 X80.218 Y101.341 E12.49674
G1 X79.499 Y101.484 E12.53209
G1 X77.798 Y101.736 E12.61501
G1 X77.076 Y101.807 E12.64999
G1 X75.362 Y101.891 E12.73275
G1 X74.638 Y101.891 E12.76766
G1 X72.924 Y101.807 E12.85041
G1 X72.202 Y101.736 E12.8854
G1 X70.501 Y101.484 E12.96832
G1 X69.782 Y101.341 E13.00367
G1 X68.118 Y100.923 E13.08641
G1 X67.433 Y100.715 E13.12093
G1 X65.814 Y100.137 E13.20383
G1 X65.137 Y99.857 E13.23916
G1 X63.586 Y99.123 E13.3219
G1 X62.948 Y98.782 E13.35679
G1 X61.476 Y97.9 E13.43954
G1 X60.871 Y97.496 E13.47462
G1 X59.489 Y96.471 E13.55759
G1 X58.925 Y96.008 E13.59278
G1 X57.653 Y94.854 E13.6756
G1 X57.144 Y94.345 E13.71031
G1 X55.991 Y93.074 E13.79307
G1 X55.528 Y92.51 E13.82825
G1 X54.504 Y91.129 E13.91116
G1 X54.1 Y90.524 E13.94624
G1 X53.218 Y89.052 E14.02899
G1 X52.877 Y88.415 E14.06383
G1 X52.142 Y86.862 E14.14669
G1 X51.861 Y86.183 E14.18212
G1 X51.284 Y84.566 E14.26492
G1 X51.077 Y83.882 E14.29938
G1 X50.659 Y82.218 E14.38211
G1 X50.516 Y81.499 E14.41746
G1 X50.264 Y79.798 E14.50039
G1 X50.193 Y79.076 E14.53537
G1 X50.109 Y77.363 E14.61808
G1 X50.109 Y76.639 E14.65299
G1 X50.193 Y74.924 E14.73579
G1 X50.264 Y74.202 E14.77078
G1 X50.516 Y72.501 E14.8537
G1 X50.659 Y71.782 E14.88905
G1 X51.077 Y70.118 E14.97178
G1 X51.284 Y69.434 E15.00625
G1 X51.861 Y67.817 E15.08904
G1 X52.142 Y67.138 E15.12447
G1 X52.877 Y65.585 E15.20733
G1 X53.218 Y64.948 E15.24217
G1 X54.1 Y63.476 E15.32492
G1 X54.504 Y62.871 E15.36
G1 X55.528 Y61.49 E15.44291
G1 X55.991 Y60.926 E15.4781
G1 X57.144 Y59.655 E15.56085
G1 X57.653 Y59.146 E15.59556
G0 F3600 X57.922 Y59.443
G1 F1800 X59.194 Y58.289 E15.67838
G1 X59.727 Y57.851 E15.71165
G1 X61.109 Y56.826 E15.79462
G1 X61.681 Y56.443 E15.82782
G1 X63.153 Y55.561 E15.91057
G1 X63.757 Y55.239 E15.94358
G1 X64.976 Y54.662 E16.00861
G1 X65.327 Y53.973 E16.0459
G1 X65.701 Y53.325 E16.08198
G1 X66.142 Y52.721 E16.11804
G1 X66.615 Y52.198 E16.15205
G1 X67.498 Y51.315 E16.21227
G1 X68.055 Y50.815 E16.24836
G1 X68.661 Y50.378 E16.28439
G1 X69.273 Y50.027 E16.31841
G1 X70.389 Y49.459 E16.3788
G1 X71.073 Y49.155 E16.41489
G1 X71.785 Y48.927 E16.45095
G1 X72.462 Y48.784 E16.48431
G1 X73.698 Y48.587 E16.54467
G1 X74.442 Y48.509 E16.58074
G1 X75.19 Y48.511 E16.61681
G1 X75.902 Y48.587 E16.65134
G1 X77.138 Y48.784 E16.7117
G1 X77.869 Y48.941 E16.74775
G1 X78.58 Y49.176 E16.78386
G1 X79.211 Y49.459 E16.81721
G1 X80.327 Y50.027 E16.8776
G1 X80.975 Y50.401 E16.91368
G1 X81.579 Y50.842 E16.94974
G1 X82.102 Y51.315 E16.98375
G1 X82.985 Y52.198 E17.04396
G1 X83.485 Y52.755 E17.08006
G1 X83.922 Y53.361 E17.11609
G1 X84.273 Y53.973 E17.15011
G1 X84.507 Y54.432 E17.17495
G1 X84.745 Y54.531 E17.18738
G1 X86.238 Y55.236 E17.267
G1 X86.847 Y55.561 E17.30029
G1 X88.319 Y56.443 E17.38304
G1 X88.89 Y56.825 E17.41617
G1 X90.271 Y57.849 E17.49908
G1 X90.805 Y58.287 E17.53238
G1 X92.076 Y59.44 E17.61514
G1 X92.557 Y59.922 E17.64797
G1 X93.711 Y61.194 E17.73079
G1 X94.148 Y61.726 E17.76399
G1 X95.172 Y63.106 E17.84686
G1 X95.556 Y63.68 E17.88016
G1 X96.439 Y65.154 E17.96302
G1 X96.761 Y65.757 E17.99599
G1 X97.495 Y67.308 E18.07873
G1 X97.76 Y67.948 E18.11214
G1 X98.338 Y69.567 E18.19503
G1 X98.535 Y70.216 E18.22774
G1 X98.953 Y71.88 E18.31048
G1 X99.088 Y72.558 E18.34381
G1 X99.34 Y74.257 E18.42664
G1 X99.408 Y74.942 E18.45983
G1 X99.492 Y76.657 E18.54264
G1 X99.492 Y77.341 E18.57562
G1 X99.408 Y79.056 E18.65842
G1 X99.34 Y79.74 E18.69157
G1 X99.088 Y81.441 E18.77449
G1 X98.953 Y82.12 E18.80787
G1 X98.535 Y83.784 E18.89061
G1 X98.339 Y84.432 E18.92326
G1 X97.762 Y86.049 E19.00605
G1 X97.496 Y86.691 E19.03956
G1 X96.761 Y88.244 E19.12241
G1 X96.439 Y88.847 E19.15538
G1 X95.557 Y90.319 E19.23813
G1 X95.175 Y90.89 E19.27126
G1 X94.151 Y92.271 E19.35416
G1 X93.713 Y92.805 E19.38747
G1 X92.56 Y94.076 E19.47022
G1 X92.078 Y94.557 E19.50306
G1 X90.806 Y95.711 E19.58588
G1 X90.273 Y96.149 E19.61915
G1 X88.891 Y97.174 E19.70212
G1 X88.319 Y97.557 E19.73532
G1 X86.847 Y98.439 E19.81807
G1 X86.243 Y98.761 E19.85107
G1 X84.692 Y99.495 E19.93382
G1 X84.052 Y99.76 E19.96722
G1 X82.433 Y100.338 E20.05012
G1 X81.784 Y100.535 E20.08283
G1 X80.12 Y100.953 E20.16556
G1 X79.441 Y101.088 E20.19895
G1 X77.74 Y101.34 E20.28187
G1 X77.057 Y101.408 E20.31497
G1 X75.343 Y101.492 E20.39772
G1 X74.657 Y101.492 E20.4308
G1 X72.943 Y101.408 E20.51355
G1 X72.26 Y101.34 E20.54665
G1 X70.559 Y101.088 E20.62958
G1 X69.88 Y100.953 E20.66296
G1 X68.216 Y100.535 E20.7457
G1 X67.567 Y100.338 E20.7784
G1 X65.948 Y99.76 E20.8613
G1 X65.308 Y99.495 E20.8947
G1 X63.757 Y98.761 E20.97745
G1 X63.153 Y98.439 E21.01046
G1 X61.681 Y97.557 E21.09321
G1 X61.109 Y97.174 E21.1264
G1 X59.727 Y96.149 E21.20938
G1 X59.194 Y95.711 E21.24264
G1 X57.922 Y94.557 E21.32547
G1 X57.44 Y94.076 E21.3583
G1 X56.287 Y92.805 E21.44106
G1 X55.849 Y92.271 E21.47436
G1 X54.825 Y90.89 E21.55727
G1 X54.443 Y90.319 E21.5904
G1 X53.561 Y88.847 E21.67315
G1 X53.239 Y88.244 E21.70611
G1 X52.504 Y86.691 E21.78896
G1 X52.238 Y86.049 E21.82248
G1 X51.661 Y84.432 E21.90527
G1 X51.465 Y83.784 E21.93791
G1 X51.047 Y82.12 E22.02065
G1 X50.912 Y81.441 E22.05403
G1 X50.66 Y79.74 E22.13696
G1 X50.592 Y79.057 E22.17005
G1 X50.508 Y77.344 E22.25276
G1 X50.508 Y76.659 E22.28579
G1 X50.592 Y74.944 E22.36859
G1 X50.66 Y74.26 E22.40174
G1 X50.912 Y72.559 E22.48466
G1 X51.047 Y71.88 E22.51805
G1 X51.465 Y70.216 E22.60078
G1 X51.661 Y69.568 E22.63343
G1 X52.238 Y67.951 E22.71622
G1 X52.504 Y67.309 E22.74973
G1 X53.239 Y65.756 E22.83258
G1 X53.561 Y65.153 E22.86555
G1 X54.443 Y63.681 E22.9483
G1 X54.825 Y63.11 E22.98143
G1 X55.849 Y61.729 E23.06433
G1 X56.287 Y61.195 E23.09764
G1 X57.44 Y59.924 E23.18039
G1 X57.922 Y59.443 E23.21323
G0 F3600 X58.19 Y59.739
G1 F1800 X59.462 Y58.585 E23.29605
G1 X59.965 Y58.172 E23.32743
G1 X61.347 Y57.147 E23.41041
G1 X61.887 Y56.787 E23.4417
G1 X63.359 Y55.905 E23.52446
G1 X63.928 Y55.6 E23.55559
G1 X65.27 Y54.965 E23.62718
G1 X65.683 Y54.154 E23.67107
G1 X66.048 Y53.526 E23.7061
G1 X66.479 Y52.942 E23.7411
G1 X66.898 Y52.481 E23.77114
G1 X67.781 Y51.598 E23.83136
G1 X68.322 Y51.114 E23.86636
G1 X68.913 Y50.691 E23.90141
G1 X69.454 Y50.383 E23.93143
G1 X70.57 Y49.815 E23.99181
G1 X71.235 Y49.522 E24.02686
G1 X71.927 Y49.303 E24.06186
G1 X72.525 Y49.179 E24.09131
G1 X73.761 Y48.982 E24.15166
G1 X74.484 Y48.908 E24.18671
G1 X75.21 Y48.913 E24.22172
G1 X75.839 Y48.982 E24.25224
G1 X77.075 Y49.179 E24.31259
G1 X77.785 Y49.333 E24.34763
G1 X78.474 Y49.564 E24.38267
G1 X79.03 Y49.815 E24.41209
G1 X80.146 Y50.383 E24.47247
G1 X80.774 Y50.748 E24.5075
G1 X81.358 Y51.179 E24.5425
G1 X81.819 Y51.598 E24.57254
G1 X82.702 Y52.481 E24.63276
G1 X83.186 Y53.022 E24.66776
G1 X83.609 Y53.613 E24.70281
G1 X83.917 Y54.154 E24.73283
G1 X84.218 Y54.745 E24.76482
G1 X84.574 Y54.893 E24.78341
G1 X86.067 Y55.598 E24.86303
G1 X86.641 Y55.905 E24.89442
G1 X88.113 Y56.787 E24.97717
G1 X88.652 Y57.146 E25.0084
G1 X90.033 Y58.17 E25.0913
G1 X90.536 Y58.584 E25.12272
G1 X91.807 Y59.737 E25.20547
G1 X92.261 Y60.19 E25.2364
G1 X93.415 Y61.462 E25.31922
G1 X93.827 Y61.964 E25.35054
G1 X94.851 Y63.344 E25.4334
G1 X95.213 Y63.885 E25.46479
G1 X96.096 Y65.359 E25.54765
G1 X96.4 Y65.928 E25.57876
G1 X97.134 Y67.479 E25.66151
G1 X97.384 Y68.083 E25.69303
G1 X97.962 Y69.702 E25.77593
G1 X98.147 Y70.313 E25.80671
G1 X98.565 Y71.977 E25.88945
G1 X98.693 Y72.617 E25.92092
G1 X98.945 Y74.316 E26.00375
G1 X99.008 Y74.961 E26.035
G1 X99.092 Y76.676 E26.1178
G1 X99.092 Y77.322 E26.14895
G1 X99.008 Y79.037 E26.23176
G1 X98.945 Y79.681 E26.26296
G1 X98.693 Y81.382 E26.34588
G1 X98.565 Y82.023 E26.3774
G1 X98.147 Y83.687 E26.46014
G1 X97.962 Y84.297 E26.49088
G1 X97.385 Y85.914 E26.57367
G1 X97.135 Y86.519 E26.60524
G1 X96.4 Y88.072 E26.68809
G1 X96.095 Y88.641 E26.71922
G1 X95.213 Y90.113 E26.80197
G1 X94.854 Y90.652 E26.8332
G1 X93.83 Y92.033 E26.91611
G1 X93.416 Y92.536 E26.94752
G1 X92.263 Y93.807 E27.03028
G1 X91.81 Y94.261 E27.0612
G1 X90.538 Y95.415 E27.14402
G1 X90.035 Y95.828 E27.17541
G1 X88.653 Y96.853 E27.25838
G1 X88.113 Y97.213 E27.28968
G1 X86.641 Y98.095 E27.37243
G1 X86.072 Y98.4 E27.40356
G1 X84.521 Y99.134 E27.48631
G1 X83.917 Y99.384 E27.51783
G1 X82.298 Y99.962 E27.60073
G1 X81.687 Y100.147 E27.63151
G1 X80.023 Y100.565 E27.71425
G1 X79.382 Y100.693 E27.74577
G1 X77.681 Y100.945 E27.82869
G1 X77.037 Y101.008 E27.8599
G1 X75.323 Y101.092 E27.94265
G1 X74.677 Y101.092 E27.9738
G1 X72.963 Y101.008 E28.05655
G1 X72.319 Y100.945 E28.08776
G1 X70.618 Y100.693 E28.17068
G1 X69.977 Y100.565 E28.2022
G1 X68.313 Y100.147 E28.28494
G1 X67.702 Y99.962 E28.31572
G1 X66.083 Y99.384 E28.39862
G1 X65.479 Y99.134 E28.43014
G1 X63.928 Y98.4 E28.51289
G1 X63.359 Y98.095 E28.54402
G1 X61.887 Y97.213 E28.62677
G1 X61.347 Y96.853 E28.65807
G1 X59.965 Y95.828 E28.74104
G1 X59.462 Y95.415 E28.77243
G1 X58.19 Y94.261 E28.85525
G1 X57.737 Y93.807 E28.88617
G1 X56.584 Y92.536 E28.96893
G1 X56.17 Y92.033 E29.00034
G1 X55.146 Y90.652 E29.08325
G1 X54.787 Y90.113 E29.11448
